<?xml version='1.0' encoding='UTF-8'?>
<map version="1.10" tiledversion="1.11.2" orientation="orthogonal" renderorder="right-down" width="64" height="64" tilewidth="16" tileheight="16" infinite="0" nextlayerid="8" nextobjectid="1">
 <tileset firstgid="1" source="randemon_tilesets/fire_red_decoration.tsx" />
 <tileset firstgid="109" source="randemon_tilesets/fire_red_fences.tsx" />
 <tileset firstgid="145" source="randemon_tilesets/fire_red_hills.tsx" />
 <tileset firstgid="195" source="randemon_tilesets/fire_red_houses.tsx" />
 <tileset firstgid="1545" source="randemon_tilesets/fire_red_path.tsx" />
 <tileset firstgid="1695" source="randemon_tilesets/fire_red_plants.tsx" />
 <tileset firstgid="1743" source="randemon_tilesets/fire_red_road_elements.tsx" />
 <tileset firstgid="1755" source="randemon_tilesets/fire_red_water.tsx" />
<layer id="1" name="GROUND0" width="64" height="64"><data encoding="csv">1719,1709,1725,1719,1738,1739,1738,1739,1731,1701,1707,1731,1738,1739,1738,1739,1738,1739,1707,1731,1719,1701,1701,1731,1725,1709,1695,1707,1709,1707,1709,1737,1738,1739,1709,1707,1701,1725,1725,1695,1719,1719,1701,1731,1713,1709,1713,1709,1713,1695,1731,1695,1701,1695,1707,1695,1713,1695,1707,1725,1719,1713,1695,1695,
1707,1709,1713,1695,1707,1738,1739,1709,1725,1709,1731,1701,1719,1719,1719,1707,1719,1737,1695,1713,1725,1713,1737,1737,1709,1707,1738,1739,1709,1737,1738,1739,1709,1725,1719,1707,1695,1738,1739,1725,1725,1695,1713,1725,1719,1713,1737,1725,1695,1709,1725,1695,1719,1695,1737,1713,1731,1719,1695,1719,1737,1695,1713,1598,
1738,1739,1737,1695,1731,1738,1739,1695,1738,1739,1738,1739,1738,1739,1709,1719,1731,1707,1695,1695,1695,1713,1725,1695,1738,1739,1701,1731,1738,1739,1707,1709,1701,1707,1725,1738,1739,1738,1739,1737,1695,1713,1713,1695,1737,1709,1713,1713,1707,1709,1719,1731,1725,1731,1725,1725,1737,1731,1713,1701,1701,1719,1598,1604,
1707,1725,1719,1737,1737,1738,1739,1713,1709,1713,1738,1739,1737,1738,1739,1738,1739,1695,1725,1701,1731,1701,1725,1701,1725,1738,1739,1709,1731,1709,1725,1709,1731,1695,1737,1725,1738,1739,1737,1695,1719,1707,1731,1725,1731,1737,1713,1709,1731,1709,1737,1731,1725,1695,1695,1725,1695,1719,1713,1731,1701,1598,1604,1691,
1725,1737,1725,1719,1695,1731,1709,1731,1738,1739,1738,1739,1701,1725,1709,1713,1701,1725,1737,1695,1719,1707,1737,1719,1738,1739,1738,1739,1738,1739,1709,1701,1701,1713,1695,1713,1701,1731,1695,1695,1713,1713,1719,1731,1695,1725,1737,1731,1707,1709,1731,1707,1731,1695,1701,1707,1737,1737,1695,1598,1593,1604,1691,1687,
1737,1713,1707,1695,1731,1731,1707,1731,1695,1707,1731,1701,1701,1701,1737,1719,1725,1713,1719,1695,1701,1695,1715,1707,1719,1713,1695,1707,1707,1731,1737,1731,1719,1695,1715,1737,1713,1701,1737,1713,1725,1713,1737,1737,1713,1713,1695,1709,1737,1725,1713,1731,1731,1737,1731,1713,1713,1709,1598,1604,1691,1684,1687,1770,
1725,1719,1715,1695,1737,1713,1725,1715,1737,1737,1701,1719,1725,1737,1713,1713,1695,1713,1731,1731,1713,1725,1737,1731,1737,1737,1725,1713,1701,1695,1738,1739,1738,1739,1725,1725,1731,1725,1731,1701,1707,1713,1701,1713,1707,1738,1739,1709,1731,1719,1731,1737,1725,1725,1731,1725,1695,1713,1591,1691,1687,1770,1770,1770,
1731,1719,1707,1719,1737,1725,1719,1719,1737,1713,1695,1719,1719,1725,1713,1731,1719,1725,1719,1695,1731,1737,1731,1731,1719,1701,1695,1701,1719,1737,1738,1739,1709,1695,1725,1707,1713,1737,1731,1737,1737,1701,1707,1701,1725,1738,1739,1707,1701,1701,1707,1731,1737,1737,1725,1719,1695,1598,1604,1682,1770,1770,1770,1770,
1719,1725,1713,1719,1719,1707,1725,1719,1719,1701,1707,1725,1701,1737,1725,1695,1701,1725,1725,1701,1737,1725,1719,1719,1725,1719,1707,1695,1709,1695,1738,1739,1738,1739,1713,1737,1707,1701,1701,1713,1725,1707,1695,1695,1738,1739,1707,1737,1709,1719,1713,1695,1713,1737,1725,1737,1598,1604,1691,1687,1770,1770,1770,1770,
1707,1713,1707,1725,1695,1715,1701,1719,1695,1707,1695,1737,1701,1725,1707,1701,1731,1707,1731,1725,1695,1719,1695,1719,1731,1713,1738,1739,1738,1739,1738,1739,1738,1739,1701,1725,1707,1695,1725,1725,1713,1695,1713,1707,1738,1739,1738,1739,1709,1719,1737,1701,1701,1701,1725,1737,1591,1691,1687,1770,1770,1770,1770,1770,
1719,1713,1695,1695,1695,1713,1713,1695,1701,1719,1725,1719,1725,1701,1701,1701,1701,1713,1695,1701,1737,1701,1738,1739,1709,1695,1738,1739,1737,1738,1739,1738,1739,1709,1719,1713,1713,1737,1725,1707,1737,1707,1707,1737,1738,1739,1737,1709,1719,1701,1738,1739,1709,1731,1737,1598,1604,1682,1770,1770,1770,1770,1770,1770,
1719,1713,1713,1737,1707,1713,1737,1737,1707,1701,1707,1713,1695,1737,1719,1701,1725,1701,1695,1713,1701,1738,1739,1725,1738,1739,1738,1739,1738,1739,1738,1739,1731,1695,1707,1719,1725,1725,1731,1701,1695,1719,1725,1738,1739,1738,1739,1725,1731,1701,1707,1738,1739,1719,1701,1591,1691,1687,1770,1770,1770,1770,1770,1770,
1737,1707,1713,1701,1701,1719,1737,1725,1707,1725,1701,1713,1707,1709,1713,1737,1695,1713,1707,1719,1737,1719,1709,1737,1709,1731,1738,1739,1738,1739,1738,1739,1738,1739,1731,1707,1725,1737,1731,1737,1695,1695,1709,1719,1738,1739,1725,1709,1737,1719,1738,1739,1731,1738,1739,1591,1682,1770,1770,1770,1770,1770,1770,1770,
1695,1695,1713,1695,1701,1731,1725,1719,1701,1731,1725,1719,1713,1738,1739,1731,1695,1707,1737,1719,1738,1739,1731,1709,1701,1709,1707,1738,1739,1725,1738,1739,1725,1725,1725,1695,1715,1725,1695,1719,1713,1709,1707,1738,1739,1701,1738,1739,1707,1709,1737,1709,1707,1713,1709,1591,1682,1770,1770,1770,1770,1770,1770,1770,
1713,1713,1695,1719,1719,1738,1739,1738,1739,1709,1737,1719,1737,1701,1738,1739,1707,1701,1731,1737,1738,1739,1738,1739,1738,1739,1738,1739,1695,1731,1737,1725,1719,1738,1739,1725,1725,1701,1719,1719,1737,1707,1719,1737,1701,1709,1713,1713,1695,1738,1739,1738,1739,1701,1709,1591,1682,1770,1770,1770,1770,1770,1770,1770,
1713,1713,1719,1719,1738,1739,1737,1709,1725,1725,1713,1731,1737,1701,1707,1725,1707,1737,1719,1725,1713,1713,1731,1725,1701,1725,1719,1737,1707,1738,1739,1737,1731,1709,1731,1709,1695,1695,1695,1713,1713,1695,1715,1737,1709,1737,1709,1707,1713,1709,1701,1737,1738,1739,1709,1591,1682,1770,1770,1770,1770,1770,1770,1770,
1695,1737,1713,1737,1731,1725,1695,1695,1695,1738,1739,1713,1695,1709,1695,1695,1709,1701,1695,1725,1737,1719,1738,1739,1707,1738,1739,1738,1739,1738,1739,1709,1731,1738,1739,1701,1713,1695,1713,1701,1731,1731,1707,1731,1713,1738,1739,1707,1738,1739,1695,1738,1739,1738,1739,1591,1682,1770,1770,1770,1770,1770,1770,1770,
1725,1707,1738,1739,1737,1738,1739,1738,1739,1738,1739,1738,1739,1738,1739,1738,1739,1737,1707,1731,1707,1731,1713,1709,1731,1738,1739,1738,1739,1737,1709,1731,1737,1701,1707,1738,1739,1725,1695,1737,1707,1707,1707,1725,1738,1739,1731,1719,1719,1738,1739,1709,1731,1701,1709,1591,1682,1770,1770,1770,1770,1770,1770,1770,
1707,1738,1739,1709,1701,1738,1739,1709,1707,1713,1731,1737,1738,1739,1738,1739,1709,1725,1713,1707,1719,1719,1715,1715,1737,1737,1719,1709,1731,1709,1695,1709,1731,1738,1739,1738,1739,1701,1695,1701,1713,1695,1695,1695,1738,1739,1719,1738,1739,1738,1739,1713,1738,1739,1709,1591,1682,1770,1770,1770,1770,1770,1770,1770,
1709,1695,1707,1731,1709,1719,1737,1709,1725,1701,1709,1731,1709,1713,1737,1737,1701,1719,1695,1695,1701,1719,1725,1695,1731,1737,1719,1707,1738,1739,1731,1707,1731,1701,1701,1737,1695,1737,1707,1583,1578,1578,1578,1584,1737,1709,1707,1709,1707,1738,1739,1709,1719,1738,1739,1591,1682,1770,1770,1770,1770,1770,1770,1770,
1738,1739,1731,1738,1739,1731,1738,1739,1709,1695,1719,1713,1709,1695,1715,1737,1719,1695,1709,1719,1707,1719,1707,1719,1731,1725,1731,1738,1739,1738,1739,1738,1739,1709,1701,1731,1719,1725,1713,1576,1586,1579,1579,1582,1709,1701,1713,1701,1725,1738,1739,1738,1739,1709,1719,1591,1682,1770,1770,1770,1770,1770,1770,1770,
1738,1739,1731,1738,1739,1737,1709,1713,1707,1695,1707,1731,1731,1737,1713,1731,1701,1713,1709,1713,1737,1719,1713,1701,1701,1731,1725,1709,1701,1738,1739,1737,1583,1578,1578,1578,1578,1578,1578,1589,1577,1737,1709,1725,1738,1739,1725,1707,1738,1739,1719,1738,1739,1709,1725,1591,1693,1689,1770,1770,1770,1770,1770,1770,
1731,1709,1707,1709,1713,1709,1695,1731,1737,1737,1701,1719,1713,1701,1701,1731,1713,1719,1701,1719,1701,1731,1707,1701,1695,1725,1707,1738,1739,1738,1739,1709,1576,1586,1579,1579,1579,1579,1579,1579,1582,1701,1738,1739,1709,1695,1709,1695,1719,1709,1731,1713,1719,1725,1731,1596,1602,1682,1770,1770,1770,1770,1770,1770,
1719,1707,1695,1725,1695,1707,1713,1725,1701,1719,1725,1701,1701,1707,1583,1578,1578,1578,1578,1578,1578,1578,1578,1578,1578,1578,1578,1584,1738,1739,1737,1737,1576,1577,1695,1701,1707,1701,1719,1737,1713,1731,1738,1739,1701,1738,1739,1725,1719,1719,1731,1737,1737,1701,1713,1725,1591,1682,1770,1770,1770,1770,1770,1770,
1738,1739,1737,1709,1695,1713,1731,1725,1737,1695,1701,1707,1695,1725,1581,1579,1579,1579,1579,1579,1579,1579,1579,1579,1579,1579,1587,1577,1713,1719,1701,1695,1576,1577,1695,1725,1719,1713,1719,1725,1737,1737,1738,1739,1709,1737,1709,1725,1719,1701,1701,1725,1707,1713,1737,1731,1591,1682,1770,1770,1770,1770,1770,1770,
1713,1695,1719,1707,1713,1737,1737,1713,1713,1709,1695,1731,1707,1709,1695,1695,1731,1701,1713,1707,1737,1713,1719,1719,1725,1713,1576,1577,1713,1731,1701,1731,1576,1577,1695,1713,1731,1695,1695,1695,1737,1701,1725,1738,1739,1701,1731,1713,1707,1713,1707,1731,1713,1695,1738,1739,1591,1693,1689,1770,1770,1770,1770,1770,
1731,1707,1725,1701,1713,1731,1713,1725,1695,1709,1731,1709,1707,1725,1737,1731,1731,1737,1719,1725,1707,1731,1701,1701,1719,1713,1576,1577,1713,1701,1737,1715,1576,1577,1725,1731,1701,1713,1713,1707,1719,1725,1719,1701,1709,1713,1725,1731,1695,1695,1713,1713,1719,1695,1709,1707,1596,1602,1682,1770,1770,1770,1770,1770,
1707,1707,1701,1713,1737,1713,1713,1709,1713,1738,1739,1738,1739,1707,1709,1731,1695,1695,1731,1701,1713,1719,1707,1713,1713,1737,1576,1577,1695,1695,1737,1701,1576,1577,1713,1707,1701,1701,1707,1719,1713,1707,1737,1731,1701,1719,1695,1737,1719,1701,1737,1731,1695,1738,1739,1701,1709,1591,1682,1770,1770,1770,1770,1770,
1707,1737,1725,1719,1701,1719,1707,1709,1725,1738,1739,1709,1737,1738,1739,1737,1713,1713,1737,1695,1719,1713,1695,1695,1695,1713,1576,1577,1725,1707,1737,1695,1576,1577,1701,1737,1731,1737,1725,1737,1713,1713,1713,1707,1701,1701,1737,1719,1695,1701,1701,1713,1725,1738,1739,1709,1713,1591,1682,1770,1770,1770,1770,1770,
1713,1713,1738,1739,1738,1739,1738,1739,1737,1713,1738,1739,1719,1738,1739,1738,1739,1701,1719,1701,1713,1583,1578,1578,1578,1578,1589,1577,1731,1695,1737,1713,1576,1577,1725,1737,1719,1707,1725,1737,1725,1713,1701,1695,1731,1701,1695,1719,1713,1725,1731,1737,1731,1738,1739,1737,1713,1591,1682,1770,1770,1770,1770,1770,
1709,1707,1738,1739,1738,1739,1738,1739,1738,1739,1738,1739,1719,1695,1725,1709,1707,1707,1725,1695,1713,1581,1579,1579,1579,1579,1587,1588,1578,1578,1578,1578,1589,1577,1695,1713,1731,1731,1701,1731,1731,1707,1715,1737,1695,1719,1725,1695,1713,1707,1707,1713,1731,1707,1738,1739,1709,1591,1682,1770,1770,1770,1770,1770,
1737,1695,1738,1739,1738,1739,1738,1739,1737,1709,1731,1709,1707,1695,1695,1709,1725,1709,1713,1719,1701,1713,1707,1713,1737,1719,1576,1586,1579,1579,1579,1579,1579,1582,1707,1725,1719,1725,1695,1737,1701,1737,1731,1731,1731,1725,1725,1731,1701,1713,1701,1731,1738,1739,1707,1709,1737,1591,1682,1770,1770,1770,1770,1770,
1593,1599,1725,1738,1739,1738,1739,1713,1738,1739,1709,1725,1738,1739,1709,1707,1738,1739,1731,1695,1719,1695,1719,1713,1695,1695,1576,1577,1707,1737,1707,1719,1719,1713,1583,1578,1578,1578,1578,1578,1578,1578,1578,1578,1578,1578,1584,1719,1695,1695,1695,1695,1738,1739,1701,1713,1701,1591,1693,1689,1770,1770,1770,1770,
1590,1603,1599,1695,1738,1739,1738,1739,1707,1738,1739,1709,1707,1719,1738,1739,1709,1701,1725,1709,1719,1737,1737,1731,1707,1695,1576,1577,1713,1707,1713,1707,1719,1731,1576,1586,1579,1579,1579,1579,1579,1579,1579,1579,1579,1579,1582,1719,1713,1725,1719,1719,1738,1739,1737,1707,1695,1596,1602,1682,1770,1770,1770,1770,
1692,1590,1603,1593,1599,1738,1739,1738,1739,1707,1738,1739,1731,1738,1739,1709,1707,1738,1739,1709,1707,1719,1731,1737,1713,1731,1576,1577,1707,1713,1701,1707,1713,1709,1576,1577,1713,1709,1719,1709,1737,1719,1695,1737,1701,1719,1707,1719,1719,1725,1713,1701,1738,1739,1709,1719,1707,1731,1591,1682,1770,1770,1770,1770,
1686,1692,1590,1590,1592,1719,1709,1725,1738,1739,1695,1709,1701,1731,1737,1738,1739,1738,1739,1709,1713,1701,1725,1719,1707,1701,1576,1577,1731,1701,1731,1707,1725,1709,1576,1577,1737,1738,1739,1709,1707,1695,1695,1731,1701,1737,1701,1719,1701,1707,1701,1707,1701,1738,1739,1737,1701,1737,1591,1693,1689,1770,1770,1770,
1770,1686,1692,1590,1603,1599,1725,1737,1738,1739,1738,1739,1709,1725,1738,1739,1709,1737,1709,1707,1725,1719,1695,1737,1707,1713,1576,1577,1701,1737,1719,1713,1707,1709,1576,1577,1738,1739,1709,1701,1713,1719,1719,1725,1719,1707,1707,1695,1695,1713,1707,1701,1701,1731,1713,1731,1725,1731,1596,1602,1682,1770,1770,1770,
1770,1770,1681,1590,1590,1603,1593,1593,1593,1593,1593,1593,1599,1695,1738,1739,1725,1707,1695,1713,1731,1713,1715,1725,1707,1731,1576,1588,1578,1578,1578,1578,1578,1578,1589,1577,1713,1738,1739,1709,1713,1713,1725,1731,1707,1713,1713,1701,1713,1713,1725,1713,1713,1719,1701,1701,1701,1695,1731,1591,1693,1689,1770,1770,
1770,1770,1681,1590,1590,1590,1590,1590,1590,1590,1590,1590,1603,1599,1738,1739,1695,1707,1695,1695,1707,1713,1737,1713,1713,1725,1581,1579,1587,1586,1579,1579,1579,1579,1579,1582,1738,1739,1738,1739,1713,1725,1707,1719,1737,1719,1737,1701,1719,1701,1725,1707,1719,1713,1713,1701,1701,1695,1725,1596,1602,1693,1683,1689,
1770,1770,1681,1590,1590,1590,1590,1590,1590,1590,1590,1590,1590,1603,1599,1738,1739,1701,1725,1725,1719,1737,1737,1731,1731,1713,1725,1737,1576,1577,1709,1731,1701,1738,1739,1738,1739,1707,1695,1709,1737,1715,1719,1731,1707,1725,1701,1695,1701,1731,1719,1695,1731,1695,1707,1707,1713,1719,1695,1701,1591,1590,1590,1693,
1770,1770,1681,1590,1590,1590,1590,1590,1590,1590,1590,1590,1590,1590,1592,1738,1739,1725,1707,1713,1731,1737,1695,1725,1713,1731,1725,1695,1576,1577,1725,1709,1731,1738,1739,1709,1719,1725,1738,1739,1713,1713,1713,1695,1713,1695,1725,1731,1719,1725,1731,1713,1701,1695,1725,1713,1707,1737,1701,1713,1591,1590,1590,1590,
1770,1770,1686,1692,1590,1590,1590,1590,1590,1590,1590,1590,1590,1590,1603,1599,1738,1739,1709,1725,1725,1707,1737,1701,1701,1731,1731,1731,1576,1577,1707,1701,1707,1695,1738,1739,1709,1731,1737,1737,1737,1725,1707,1731,1707,1695,1737,1725,1731,1725,1737,1731,1701,1707,1701,1695,1701,1731,1695,1707,1591,1590,1590,1590,
1770,1770,1770,1681,1590,1590,1590,1590,1590,1590,1590,1590,1590,1590,1590,1603,1599,1738,1739,1713,1719,1707,1719,1695,1731,1713,1719,1731,1576,1577,1701,1737,1737,1707,1709,1713,1725,1701,1707,1731,1731,1713,1719,1701,1713,1737,1707,1731,1737,1731,1707,1707,1731,1725,1713,1725,1737,1731,1713,1598,1604,1590,1590,1691,
1770,1770,1770,1681,1590,1590,1590,1590,1590,1691,1684,1684,1692,1590,1590,1590,1592,1713,1719,1731,1707,1737,1713,1707,1701,1707,1737,1725,1576,1577,1731,1731,1719,1701,1725,1731,1719,1713,1725,1731,1725,1737,1695,1731,1713,1713,1737,1737,1737,1707,1725,1719,1715,1731,1701,1707,1598,1593,1593,1604,1691,1684,1684,1687,
1770,1770,1770,1681,1590,1590,1590,1590,1590,1682,1770,1770,1681,1590,1590,1590,1603,1599,1719,1737,1731,1713,1695,1701,1719,1713,1701,1737,1576,1577,1707,1737,1707,1707,1583,1578,1578,1578,1578,1578,1578,1584,1737,1737,1731,1707,1725,1713,1695,1701,1719,1695,1695,1719,1709,1598,1604,1691,1684,1684,1687,1770,1770,1770,
1770,1770,1770,1686,1684,1692,1590,1590,1590,1682,1770,1770,1681,1590,1590,1590,1590,1592,1701,1719,1737,1719,1719,1713,1701,1737,1695,1725,1576,1577,1713,1707,1701,1725,1576,1586,1579,1579,1579,1579,1579,1582,1725,1707,1707,1719,1713,1731,1701,1695,1725,1701,1719,1719,1598,1604,1691,1687,1770,1770,1770,1770,1770,1770,
1770,1770,1770,1770,1770,1681,1590,1590,1590,1682,1770,1770,1681,1590,1590,1590,1590,1603,1599,1713,1725,1695,1719,1713,1737,1725,1701,1695,1576,1588,1578,1578,1578,1578,1589,1577,1707,1737,1707,1719,1731,1725,1737,1701,1737,1707,1737,1725,1719,1695,1731,1695,1725,1598,1604,1691,1687,1770,1770,1770,1770,1770,1770,1770,
1770,1770,1770,1770,1770,1681,1590,1590,1590,1682,1770,1770,1686,1692,1590,1590,1590,1590,1592,1725,1701,1695,1725,1719,1707,1725,1701,1731,1581,1579,1579,1579,1579,1579,1579,1582,1707,1695,1695,1707,1725,1707,1707,1731,1731,1737,1715,1713,1701,1731,1725,1695,1598,1604,1691,1687,1770,1770,1770,1770,1770,1770,1770,1770,
1770,1770,1770,1770,1770,1681,1590,1590,1590,1682,1770,1770,1770,1681,1590,1590,1590,1590,1603,1599,1737,1707,1707,1701,1731,1725,1707,1737,1737,1737,1713,1707,1695,1713,1719,1695,1713,1713,1713,1719,1731,1725,1719,1731,1695,1713,1731,1725,1695,1713,1737,1737,1591,1691,1687,1770,1770,1770,1770,1770,1770,1770,1770,1770,
1770,1770,1770,1770,1770,1686,1692,1590,1590,1693,1683,1683,1683,1694,1590,1590,1590,1590,1590,1592,1737,1713,1701,1695,1695,1695,1707,1731,1737,1737,1737,1719,1701,1701,1737,1713,1719,1725,1695,1707,1707,1725,1737,1719,1737,1737,1701,1719,1731,1731,1731,1598,1604,1682,1770,1770,1770,1770,1770,1770,1770,1770,1770,1770,
1770,1770,1770,1770,1770,1770,1686,1692,1590,1590,1590,1590,1691,1684,1684,1684,1684,1692,1590,1603,1599,1701,1707,1731,1731,1719,1707,1695,1695,1731,1707,1701,1737,1725,1737,1701,1737,1695,1695,1713,1737,1719,1725,1701,1701,1707,1713,1713,1737,1709,1598,1604,1691,1687,1770,1770,1770,1770,1770,1770,1770,1770,1770,1770,
1770,1770,1770,1770,1770,1770,1770,1686,1692,1590,1590,1590,1682,1770,1770,1770,1770,1686,1684,1692,1603,1599,1701,1725,1731,1713,1713,1701,1725,1737,1707,1737,1701,1701,1713,1725,1731,1731,1707,1731,1707,1731,1701,1737,1713,1713,1707,1719,1598,1593,1604,1691,1687,1770,1770,1770,1770,1770,1770,1770,1770,1770,1770,1770,
1770,1770,1770,1770,1770,1770,1770,1770,1686,1684,1684,1684,1687,1770,1770,1770,1770,1770,1770,1686,1692,1603,1593,1599,1713,1719,1695,1701,1719,1701,1701,1731,1713,1707,1695,1695,1701,1713,1737,1701,1713,1707,1707,1707,1737,1737,1713,1598,1604,1691,1684,1687,1770,1770,1770,1770,1770,1770,1770,1770,1770,1770,1770,1770,
1770,1770,1770,1770,1770,1770,1770,1770,1770,1770,1770,1770,1770,1770,1770,1770,1770,1770,1770,1770,1686,1684,1692,1592,1725,1738,1739,1709,1713,1707,1737,1719,1695,1719,1695,1701,1695,1731,1737,1713,1731,1713,1701,1701,1713,1598,1593,1604,1691,1687,1770,1770,1770,1770,1770,1770,1770,1770,1770,1770,1770,1770,1770,1785,
1770,1770,1770,1770,1770,1770,1770,1770,1770,1770,1770,1770,1770,1770,1770,1770,1770,1770,1770,1770,1770,1770,1681,1603,1599,1738,1739,1738,1739,1709,1695,1701,1725,1713,1701,1713,1695,1695,1701,1707,1737,1725,1731,1707,1598,1604,1691,1684,1687,1770,1770,1770,1770,1770,1770,1770,1770,1770,1770,1770,1770,1770,1785,1785,
1770,1770,1770,1770,1770,1770,1770,1770,1770,1770,1770,1770,1770,1770,1770,1770,1770,1770,1770,1770,1770,1770,1686,1692,1603,1599,1738,1739,1737,1713,1738,1739,1707,1707,1707,1695,1725,1731,1731,1737,1695,1737,1713,1598,1604,1691,1687,1770,1770,1770,1770,1770,1770,1770,1770,1770,1770,1770,1770,1785,1785,1785,1785,1785,
1770,1770,1770,1770,1770,1770,1770,1770,1770,1770,1770,1770,1770,1770,1770,1770,1770,1770,1770,1770,1770,1770,1770,1681,1590,1603,1599,1738,1739,1695,1709,1737,1738,1739,1695,1701,1713,1701,1725,1719,1701,1701,1701,1591,1590,1682,1770,1770,1770,1770,1770,1770,1770,1770,1770,1770,1770,1770,1785,1785,1785,1785,1785,1785,
1770,1770,1770,1770,1770,1770,1770,1770,1770,1770,1770,1770,1770,1770,1770,1770,1770,1770,1770,1770,1770,1770,1770,1686,1684,1692,1603,1593,1599,1738,1739,1738,1739,1709,1719,1707,1713,1707,1701,1707,1738,1739,1598,1604,1691,1687,1770,1770,1770,1770,1770,1770,1770,1770,1770,1770,1770,1785,1785,1785,1785,1785,1785,1785,
1770,1770,1770,1770,1770,1770,1770,1770,1770,1770,1770,1770,1770,1770,1770,1770,1770,1770,1770,1770,1770,1770,1770,1770,1770,1686,1692,1590,1603,1593,1599,1738,1739,1738,1739,1709,1725,1738,1739,1738,1739,1598,1604,1691,1687,1770,1770,1770,1770,1770,1770,1770,1770,1770,1770,1770,1785,1785,1785,1785,1785,1785,1785,1785,
1770,1770,1770,1770,1770,1770,1770,1770,1770,1770,1770,1770,1770,1770,1770,1770,1770,1770,1770,1770,1770,1770,1770,1770,1770,1770,1686,1684,1684,1692,1603,1593,1599,1709,1695,1709,1695,1701,1737,1709,1598,1604,1590,1682,1770,1770,1770,1770,1770,1770,1770,1770,1770,1770,1770,1770,1785,1785,1785,1785,1785,1785,1785,1785,
1770,1770,1770,1770,1770,1770,1770,1770,1770,1770,1770,1770,1770,1770,1770,1770,1770,1770,1770,1770,1770,1770,1770,1770,1770,1770,1770,1770,1770,1686,1692,1590,1603,1593,1593,1599,1709,1598,1593,1593,1604,1590,1590,1682,1770,1770,1770,1770,1770,1770,1770,1770,1770,1770,1770,1770,1785,1785,1785,1785,1785,1785,1785,1785,
1770,1770,1770,1770,1770,1770,1770,1770,1770,1770,1770,1770,1770,1770,1770,1770,1770,1770,1770,1770,1770,1770,1770,1770,1770,1770,1770,1770,1770,1770,1681,1590,1590,1590,1590,1603,1593,1604,1590,1590,1590,1590,1691,1687,1770,1770,1770,1770,1770,1770,1770,1770,1770,1770,1770,1785,1785,1785,1785,1785,1785,1785,1785,1785,
1770,1770,1770,1770,1770,1770,1770,1770,1770,1770,1770,1770,1770,1770,1770,1770,1770,1770,1770,1770,1770,1770,1770,1770,1770,1770,1770,1770,1770,1770,1686,1692,1590,1590,1590,1590,1590,1590,1590,1590,1691,1684,1687,1770,1770,1770,1770,1770,1770,1770,1770,1770,1770,1770,1770,1785,1785,1785,1785,1785,1785,1785,1785,1785,
1770,1770,1770,1770,1770,1770,1770,1770,1770,1770,1770,1770,1770,1770,1770,1770,1770,1770,1770,1770,1770,1770,1770,1770,1770,1770,1770,1770,1770,1770,1770,1686,1684,1684,1684,1684,1684,1684,1684,1684,1687,1770,1770,1770,1770,1770,1770,1770,1770,1770,1770,1770,1770,1770,1770,1785,1785,1785,1785,1785,1785,1785,1785,1785
</data></layer><layer id="2" name="HILLS" width="64" height="64"><data encoding="csv">0,0,0,0,0,0,0,0,158,149,149,155,0,0,0,0,0,0,165,149,149,159,0,0,0,0,0,0,0,0,0,0,0,0,0,165,149,159,0,0,0,0,0,0,0,0,0,0,165,159,0,0,0,0,0,0,0,165,159,0,0,0,0,0,
0,0,0,0,0,0,0,0,0,0,0,158,149,149,149,149,149,149,159,0,0,0,0,0,0,0,0,0,0,0,0,0,0,0,165,159,0,0,0,0,0,0,0,0,0,0,165,149,159,0,0,0,0,0,0,0,165,159,0,0,0,0,0,0,
0,0,0,0,0,0,0,0,0,0,0,0,0,0,0,0,0,0,0,0,0,0,0,0,0,0,0,0,0,0,0,0,0,165,159,0,0,0,0,0,0,0,0,0,0,0,147,0,0,0,0,0,0,0,0,165,159,0,0,0,0,0,0,0,
0,0,0,0,0,0,0,0,0,0,0,0,0,0,0,0,0,0,0,0,0,0,0,0,0,0,0,0,0,0,0,0,165,159,0,0,0,0,0,0,0,0,0,0,0,165,159,0,0,0,0,0,0,0,165,159,0,0,0,0,0,0,0,0,
0,0,0,0,0,0,0,0,0,0,0,0,0,0,0,0,0,0,0,0,0,0,0,0,0,0,0,0,0,0,0,165,159,0,0,0,0,0,0,0,0,0,0,0,165,159,0,0,0,0,0,0,0,165,159,0,0,0,0,0,0,0,0,0,
0,0,0,0,0,0,0,0,0,0,0,0,0,0,0,0,0,0,0,0,0,0,0,0,0,0,0,0,0,165,149,159,0,0,0,0,0,0,0,0,0,0,0,165,159,0,0,0,0,0,0,0,165,159,0,0,0,0,0,0,0,0,0,0,
0,0,0,0,0,0,0,0,0,0,0,0,0,0,0,0,0,0,0,0,0,0,0,0,0,0,0,165,149,159,0,0,0,0,0,0,0,0,0,0,0,0,165,159,0,0,0,0,0,0,0,165,159,0,0,0,0,0,0,0,0,0,0,0,
155,0,0,0,0,0,0,0,0,0,0,0,0,0,0,0,0,0,0,0,0,0,0,0,0,165,149,159,0,0,0,0,0,0,0,0,0,0,0,0,0,0,147,0,0,0,0,0,0,0,165,159,0,0,0,0,0,0,0,0,0,0,0,0,
158,149,149,155,0,0,0,0,0,0,0,0,165,149,149,149,149,149,149,149,149,149,149,149,149,159,0,0,0,0,0,0,0,0,0,0,0,0,0,0,0,165,159,0,0,0,0,0,0,165,159,0,0,0,0,0,0,0,0,0,0,0,0,0,
0,0,0,158,149,149,149,149,149,149,149,149,159,0,0,0,0,0,0,0,0,0,0,0,0,0,0,0,0,0,0,0,0,0,0,0,0,0,0,0,0,147,0,0,0,0,0,0,0,147,0,0,0,0,0,0,0,0,0,0,0,0,0,0,
0,0,0,0,0,0,0,0,0,0,0,0,0,0,0,0,0,0,0,0,0,0,0,0,0,0,0,0,0,0,0,0,0,0,0,0,0,0,0,165,149,159,0,0,0,0,0,0,0,147,0,0,0,0,0,0,0,0,0,0,0,0,0,0,
0,0,0,0,0,0,0,0,0,0,0,0,0,0,0,0,0,0,0,0,0,0,0,0,0,0,0,0,0,0,0,0,0,0,0,0,0,0,165,159,0,0,0,0,0,0,0,0,0,147,0,0,0,0,0,0,0,0,0,0,0,0,0,0,
0,0,0,0,0,0,0,0,0,0,0,0,0,0,0,0,0,0,0,0,0,0,0,0,0,0,0,0,0,0,0,0,0,0,0,165,149,149,159,0,0,0,0,0,0,0,0,0,165,159,0,0,0,0,0,0,0,0,0,0,0,0,0,0,
0,0,0,0,0,0,0,0,0,0,0,0,0,0,0,0,0,0,0,0,0,0,0,0,0,0,0,0,0,0,0,0,165,149,149,159,0,0,0,0,0,0,0,0,0,0,0,0,147,0,0,0,0,0,0,0,0,0,0,0,0,0,0,0,
0,0,0,0,0,0,0,0,0,0,0,0,0,0,0,0,0,0,0,0,0,0,0,0,0,0,0,0,165,149,149,149,159,0,0,0,0,0,0,0,0,0,0,0,0,0,0,0,147,0,0,0,0,0,0,0,0,0,0,0,0,0,0,0,
149,149,155,0,0,0,0,0,165,149,149,149,149,149,149,149,149,149,149,149,149,149,149,149,149,149,149,149,159,0,0,0,0,0,0,0,0,0,0,0,0,0,0,0,0,0,0,165,159,0,0,0,0,0,0,0,0,0,0,0,0,0,0,0,
0,0,158,149,149,149,149,149,159,0,0,0,0,0,0,0,0,0,0,0,0,0,0,0,0,0,0,0,0,0,0,0,0,0,0,0,0,0,0,0,0,0,0,0,0,0,0,147,0,0,0,0,0,0,0,0,0,0,0,0,0,0,0,0,
0,0,0,0,0,0,0,0,0,0,0,0,0,0,0,0,0,0,0,0,0,0,0,0,0,0,0,0,0,0,0,0,0,0,0,0,0,0,0,0,0,0,0,0,0,0,165,159,0,0,0,0,0,0,0,0,0,0,0,0,0,0,0,0,
0,0,0,0,0,0,0,0,0,0,0,0,0,0,0,0,0,0,0,0,0,0,0,0,0,0,0,0,0,0,0,0,0,0,0,0,0,0,0,0,0,0,0,0,0,0,147,0,0,0,0,0,0,0,0,0,0,0,0,0,0,0,0,0,
0,0,0,0,0,0,0,0,0,0,0,0,0,0,0,0,0,0,0,0,0,0,0,0,0,0,0,0,0,0,0,0,0,0,0,0,0,0,0,0,0,0,0,0,0,0,147,0,0,0,0,0,0,0,0,0,0,0,0,0,0,0,0,0,
0,0,0,0,0,0,0,0,0,0,0,0,0,0,0,0,0,0,0,0,0,0,0,0,0,0,0,0,0,0,0,0,0,0,0,0,0,0,0,0,0,0,0,0,0,0,147,0,0,0,0,0,0,0,0,0,0,0,0,0,0,0,0,0,
0,0,0,0,0,0,0,0,0,0,0,0,0,0,0,0,0,0,0,0,0,0,0,0,0,0,0,0,0,0,0,0,0,0,0,0,0,0,0,0,0,0,0,0,0,0,148,157,0,0,0,0,0,0,0,0,0,0,0,0,0,0,0,0,
0,0,0,0,0,0,0,0,0,0,0,0,0,0,0,0,0,0,0,0,0,0,0,0,0,0,0,0,0,0,0,0,0,0,0,0,0,0,0,0,0,0,0,0,0,0,0,148,157,0,0,0,0,0,0,0,0,0,0,0,0,0,0,0,
149,149,149,149,149,149,149,149,149,155,0,0,0,0,0,0,0,0,0,0,0,0,0,0,0,0,0,0,0,0,0,0,0,0,0,0,0,0,0,0,0,0,0,0,0,0,0,0,147,0,0,0,0,0,0,0,0,0,0,0,0,0,0,0,
0,0,0,0,0,0,0,0,0,158,155,0,0,0,0,0,0,0,0,0,0,0,0,0,0,0,0,0,0,0,0,0,0,0,0,0,0,0,0,0,0,0,0,0,0,0,0,0,147,0,0,0,0,0,0,0,0,0,0,0,0,0,0,0,
0,0,0,0,0,0,0,0,0,0,158,149,155,0,0,0,0,0,0,0,0,0,0,0,0,0,0,0,0,0,0,0,0,0,0,0,0,0,0,0,0,0,0,0,0,0,0,0,148,157,0,0,0,0,0,0,0,0,0,0,0,0,0,0,
0,0,0,0,0,0,0,0,0,0,0,0,158,149,149,155,0,0,0,0,0,0,0,0,0,0,0,0,0,0,0,0,0,0,0,0,0,0,0,0,0,0,0,0,0,0,0,0,0,147,0,0,0,0,0,0,0,0,0,0,0,0,0,0,
0,0,0,0,0,0,0,0,0,0,0,0,0,0,0,158,155,0,0,0,0,0,0,0,0,0,0,0,0,0,0,0,0,0,0,0,0,0,0,0,0,0,0,0,0,0,0,0,0,147,0,0,0,0,0,0,0,0,0,0,0,0,0,0,
0,0,0,0,0,0,0,0,0,0,0,0,0,0,0,0,158,155,0,0,0,0,0,0,0,0,0,0,0,0,0,0,0,0,0,0,0,0,0,0,0,0,0,0,0,0,0,0,0,147,0,0,0,0,0,0,0,0,0,0,0,0,0,0,
0,0,0,0,0,0,0,0,0,0,0,0,0,0,0,0,0,158,155,0,0,0,0,0,0,0,0,0,0,0,0,0,0,0,0,0,0,0,0,0,0,0,0,0,0,0,0,0,0,147,0,0,0,0,0,0,0,0,0,0,0,0,0,0,
0,0,0,0,0,0,0,0,0,0,0,0,0,0,0,0,0,0,146,0,0,0,0,0,0,0,0,0,0,0,0,0,0,0,0,0,0,0,0,0,0,0,0,0,0,0,0,0,0,148,157,0,0,0,0,0,0,0,0,0,0,0,0,0,
0,0,0,0,0,0,0,0,0,0,0,0,0,0,0,0,0,0,158,155,0,0,0,0,0,0,0,0,0,0,0,0,0,0,0,0,0,0,0,0,0,0,0,0,0,0,0,0,0,0,147,0,0,0,0,0,0,0,0,0,0,0,0,0,
0,0,0,0,0,0,0,0,0,0,0,0,0,0,0,0,0,0,0,158,155,0,0,0,0,0,0,0,0,0,0,0,0,0,0,0,0,0,0,0,0,0,0,0,0,0,0,0,0,0,147,0,0,0,0,0,0,0,0,0,0,0,0,0,
0,0,0,0,0,0,0,0,0,0,0,0,0,0,0,0,0,0,0,0,158,155,0,0,0,0,0,0,0,0,0,0,0,0,0,0,0,0,0,0,0,0,0,0,0,0,0,0,0,0,147,0,0,0,0,0,0,0,0,0,0,0,0,0,
0,0,0,0,0,0,0,0,0,0,0,0,0,0,0,0,0,0,0,0,0,158,155,0,0,0,0,0,0,0,0,0,0,0,0,0,0,0,0,0,0,0,0,0,0,0,0,0,165,149,159,0,0,0,0,0,0,0,0,0,0,0,0,0,
0,0,0,0,0,0,0,0,0,0,0,0,0,0,0,0,0,0,0,0,0,0,158,155,0,0,0,0,0,0,0,0,0,0,0,0,0,0,0,0,0,0,0,0,0,0,0,0,147,0,0,0,0,0,0,0,0,0,0,0,0,0,0,0,
0,0,0,0,0,0,0,0,0,0,0,0,0,0,0,0,0,0,0,0,0,0,0,146,0,0,0,0,0,0,0,0,0,0,0,0,0,0,0,0,0,0,0,0,0,0,0,165,159,0,0,0,0,0,0,0,0,0,0,0,0,0,0,0,
0,0,0,0,0,0,0,0,0,0,0,0,0,0,0,0,0,0,0,0,0,0,0,158,155,0,0,0,0,0,0,0,0,0,0,0,0,0,0,0,0,0,0,0,0,0,0,147,0,0,0,0,0,0,0,0,0,0,0,0,0,0,0,0,
0,0,0,0,0,0,0,0,0,0,0,0,0,0,0,0,0,0,0,0,0,0,0,0,146,0,0,0,0,0,0,0,0,0,0,0,0,0,0,0,0,0,0,0,0,0,165,159,0,0,0,0,0,0,0,0,0,0,0,0,0,0,0,0,
0,0,0,0,0,0,0,0,0,0,0,0,0,0,0,0,0,0,0,0,0,0,0,0,146,0,0,0,0,0,0,0,0,0,0,0,0,0,0,0,0,0,0,0,0,165,159,0,0,0,0,0,0,0,0,0,0,0,0,0,0,0,0,0,
0,0,0,0,0,0,0,0,0,0,0,0,0,0,0,0,0,0,0,0,0,0,0,0,158,155,0,0,0,0,0,0,0,0,0,0,0,0,0,0,0,0,0,0,0,147,0,0,0,0,0,0,0,0,0,0,0,0,0,0,0,0,0,0,
0,0,0,0,0,0,0,0,0,0,0,0,0,0,0,0,0,0,0,0,0,0,0,0,0,146,0,0,0,0,0,0,0,0,0,0,0,0,0,0,0,0,0,0,165,159,0,0,0,0,0,0,0,0,0,0,0,0,0,0,0,0,0,0,
0,0,0,0,0,0,0,0,0,0,0,0,0,0,0,0,0,0,0,0,0,0,0,0,0,146,0,0,0,0,0,0,0,0,0,0,0,0,0,0,0,0,0,0,147,0,0,0,0,0,0,0,0,0,0,0,0,0,0,0,0,0,0,0,
0,0,0,0,0,0,0,0,0,0,0,0,0,0,0,0,0,0,0,0,0,0,0,0,0,146,0,0,0,0,0,0,0,0,0,0,0,0,0,0,0,0,0,0,147,0,0,0,0,0,0,0,0,0,0,0,0,0,0,0,0,0,0,0,
0,0,0,0,0,0,0,0,0,0,0,0,0,0,0,0,0,0,0,0,0,0,0,0,0,158,155,0,0,0,0,0,0,0,0,0,0,0,0,0,0,0,0,165,159,0,0,0,0,0,0,0,0,0,0,0,0,0,0,0,0,0,0,0,
0,0,0,0,0,0,0,0,0,0,0,0,0,0,0,0,0,0,0,0,0,0,0,0,0,0,146,0,0,0,0,0,0,0,0,0,0,0,0,0,0,0,0,147,0,0,0,0,0,0,0,0,0,0,0,0,0,0,0,0,0,0,0,0,
0,0,0,0,0,0,0,0,0,0,0,0,0,0,0,0,0,0,0,0,0,0,0,0,0,0,146,0,0,0,0,0,0,0,0,0,0,0,0,0,0,0,0,147,0,0,0,0,0,0,0,0,0,0,0,0,0,0,0,0,0,0,0,0,
0,0,0,0,0,0,0,0,0,0,0,0,0,0,0,0,0,0,0,0,0,0,0,0,0,0,158,155,0,0,0,0,0,0,0,0,0,0,0,0,0,0,165,159,0,0,0,0,0,0,0,0,0,0,0,0,0,0,0,0,0,0,0,0,
0,0,0,0,0,0,0,0,0,0,0,0,0,0,0,0,0,0,0,0,0,0,0,0,0,0,0,146,0,0,0,0,0,0,0,0,0,0,0,0,0,165,159,0,0,0,0,0,0,0,0,0,0,0,0,0,0,0,0,0,0,0,0,0,
0,0,0,0,0,0,0,0,0,0,0,0,0,0,0,0,0,0,0,0,0,0,0,0,0,0,0,158,149,155,0,0,0,0,0,0,0,0,0,165,149,159,0,0,0,0,0,0,0,0,0,0,0,0,0,0,0,0,0,0,0,0,0,0,
0,0,0,0,0,0,0,0,0,0,0,0,0,0,0,0,0,0,0,0,0,0,0,0,0,0,0,0,0,146,0,0,0,0,0,0,0,165,149,159,0,0,0,0,0,0,0,0,0,0,0,0,0,0,0,0,0,0,0,0,0,0,0,0,
0,0,0,0,0,0,0,0,0,0,0,0,0,0,0,0,0,0,0,0,0,0,0,0,0,0,0,0,0,158,149,155,0,0,0,165,149,159,0,0,0,0,0,0,0,0,0,0,0,0,0,0,0,0,0,0,0,0,0,0,0,0,0,0,
0,0,0,0,0,0,0,0,0,0,0,0,0,0,0,0,0,0,0,0,0,0,0,0,0,0,0,0,0,0,0,158,149,149,149,159,0,0,0,0,0,0,0,0,0,0,0,0,0,0,0,0,0,0,0,0,0,0,0,0,0,0,0,0,
0,0,0,0,0,0,0,0,0,0,0,0,0,0,0,0,0,0,0,0,0,0,0,0,0,0,0,0,0,0,0,0,0,0,0,0,0,0,0,0,0,0,0,0,0,0,0,0,0,0,0,0,0,0,0,0,0,0,0,0,0,0,0,0,
0,0,0,0,0,0,0,0,0,0,0,0,0,0,0,0,0,0,0,0,0,0,0,0,0,0,0,0,0,0,0,0,0,0,0,0,0,0,0,0,0,0,0,0,0,0,0,0,0,0,0,0,0,0,0,0,0,0,0,0,0,0,0,0,
0,0,0,0,0,0,0,0,0,0,0,0,0,0,0,0,0,0,0,0,0,0,0,0,0,0,0,0,0,0,0,0,0,0,0,0,0,0,0,0,0,0,0,0,0,0,0,0,0,0,0,0,0,0,0,0,0,0,0,0,0,0,0,0,
0,0,0,0,0,0,0,0,0,0,0,0,0,0,0,0,0,0,0,0,0,0,0,0,0,0,0,0,0,0,0,0,0,0,0,0,0,0,0,0,0,0,0,0,0,0,0,0,0,0,0,0,0,0,0,0,0,0,0,0,0,0,0,0,
0,0,0,0,0,0,0,0,0,0,0,0,0,0,0,0,0,0,0,0,0,0,0,0,0,0,0,0,0,0,0,0,0,0,0,0,0,0,0,0,0,0,0,0,0,0,0,0,0,0,0,0,0,0,0,0,0,0,0,0,0,0,0,0,
0,0,0,0,0,0,0,0,0,0,0,0,0,0,0,0,0,0,0,0,0,0,0,0,0,0,0,0,0,0,0,0,0,0,0,0,0,0,0,0,0,0,0,0,0,0,0,0,0,0,0,0,0,0,0,0,0,0,0,0,0,0,0,0,
0,0,0,0,0,0,0,0,0,0,0,0,0,0,0,0,0,0,0,0,0,0,0,0,0,0,0,0,0,0,0,0,0,0,0,0,0,0,0,0,0,0,0,0,0,0,0,0,0,0,0,0,0,0,0,0,0,0,0,0,0,0,0,0,
0,0,0,0,0,0,0,0,0,0,0,0,0,0,0,0,0,0,0,0,0,0,0,0,0,0,0,0,0,0,0,0,0,0,0,0,0,0,0,0,0,0,0,0,0,0,0,0,0,0,0,0,0,0,0,0,0,0,0,0,0,0,0,0,
0,0,0,0,0,0,0,0,0,0,0,0,0,0,0,0,0,0,0,0,0,0,0,0,0,0,0,0,0,0,0,0,0,0,0,0,0,0,0,0,0,0,0,0,0,0,0,0,0,0,0,0,0,0,0,0,0,0,0,0,0,0,0,0,
0,0,0,0,0,0,0,0,0,0,0,0,0,0,0,0,0,0,0,0,0,0,0,0,0,0,0,0,0,0,0,0,0,0,0,0,0,0,0,0,0,0,0,0,0,0,0,0,0,0,0,0,0,0,0,0,0,0,0,0,0,0,0,0,
0,0,0,0,0,0,0,0,0,0,0,0,0,0,0,0,0,0,0,0,0,0,0,0,0,0,0,0,0,0,0,0,0,0,0,0,0,0,0,0,0,0,0,0,0,0,0,0,0,0,0,0,0,0,0,0,0,0,0,0,0,0,0,0
</data></layer><layer id="3" name="FENCE" width="64" height="64"><data encoding="csv">0,0,0,0,0,0,0,0,0,0,0,0,0,0,0,0,0,0,0,0,0,0,0,0,0,0,0,0,0,0,0,0,0,0,0,0,0,0,0,0,0,0,0,0,0,0,0,0,0,0,0,0,0,0,0,0,0,0,0,0,0,0,0,0,
0,0,0,0,0,0,0,0,0,0,0,0,0,0,0,0,0,0,0,0,0,0,0,0,0,0,0,0,0,0,0,0,0,0,0,0,0,0,0,0,0,0,0,0,0,0,0,0,0,0,0,0,0,0,0,0,0,0,0,0,0,0,0,0,
0,0,0,0,0,0,0,0,0,0,0,0,0,0,0,0,0,0,0,0,0,0,0,0,0,0,0,0,0,0,0,0,0,0,0,0,0,0,0,0,0,0,0,0,0,0,0,0,0,0,0,0,0,0,0,0,0,0,0,0,0,0,0,0,
0,0,0,0,0,0,0,0,0,0,0,0,0,0,0,0,0,0,0,0,0,0,0,0,0,0,0,0,0,0,0,0,0,0,0,0,0,0,0,0,0,0,0,0,0,0,0,0,0,0,0,0,0,0,0,0,0,0,0,0,0,0,0,0,
0,0,0,0,0,0,0,0,0,0,0,0,0,0,0,0,0,0,0,0,0,0,0,0,0,0,0,0,0,0,0,0,0,0,0,0,0,0,0,0,0,0,0,0,0,0,0,0,0,0,0,0,0,0,0,0,0,0,0,0,0,0,0,0,
0,0,0,0,0,0,0,0,0,0,0,0,0,0,0,0,0,0,0,0,0,0,0,0,0,0,0,0,0,0,0,0,0,0,0,0,0,0,0,0,0,0,0,0,0,0,0,0,0,0,0,0,0,0,0,0,0,0,0,0,0,0,0,0,
0,0,0,0,0,0,0,0,0,0,0,0,0,0,0,0,0,0,0,0,0,0,0,0,0,0,0,0,0,0,0,0,0,0,0,0,0,0,0,0,0,0,0,0,0,0,0,0,0,0,0,0,0,0,0,0,0,0,0,0,0,0,0,0,
0,0,0,0,0,0,0,0,0,0,0,0,0,0,0,0,0,0,0,0,0,0,0,0,0,0,0,0,0,0,0,0,0,0,0,0,0,0,0,0,0,0,0,0,0,0,0,0,0,0,0,0,0,0,0,0,0,0,0,0,0,0,0,0,
0,0,0,0,0,0,0,0,0,0,0,0,0,0,0,0,0,0,0,0,0,0,0,0,0,0,0,0,0,0,0,0,0,0,0,0,0,0,0,0,0,0,0,0,0,0,0,0,0,0,0,0,0,0,0,0,0,0,0,0,0,0,0,0,
0,0,0,0,0,0,0,0,0,0,0,0,0,0,0,0,0,0,0,0,0,0,0,0,0,0,0,0,0,0,0,0,0,0,0,0,0,0,0,0,0,0,0,0,0,0,0,0,0,0,0,0,0,0,0,0,0,0,0,0,0,0,0,0,
0,0,0,0,0,0,0,0,0,0,0,0,0,0,0,0,0,0,0,0,0,0,0,0,0,0,0,0,0,0,0,0,0,0,0,0,0,0,0,0,0,0,0,0,0,0,0,0,0,0,0,0,0,0,0,0,0,0,0,0,0,0,0,0,
0,0,0,0,0,0,0,0,0,0,0,0,0,0,0,0,0,0,0,0,0,0,0,0,0,0,0,0,0,0,0,0,0,0,0,0,0,0,0,0,0,0,0,0,0,0,0,0,0,0,0,0,0,0,0,0,0,0,0,0,0,0,0,0,
0,0,0,0,0,0,0,0,0,0,0,0,0,0,0,0,0,0,0,0,0,0,0,0,0,0,0,0,0,0,0,0,0,0,0,0,0,0,0,0,0,0,0,0,0,0,0,0,0,0,0,0,0,0,0,0,0,0,0,0,0,0,0,0,
0,0,0,0,0,0,0,0,0,0,0,0,0,0,0,0,0,0,0,0,0,0,0,0,0,0,0,0,0,0,0,0,0,0,0,0,0,0,0,0,0,0,0,0,0,0,0,0,0,0,0,0,0,0,0,0,0,0,0,0,0,0,0,0,
0,0,0,0,0,0,0,0,0,0,0,0,0,0,0,0,0,0,0,0,0,0,0,0,0,0,0,0,0,0,0,0,0,0,0,0,0,0,0,136,137,137,137,138,0,0,0,0,0,0,0,0,0,0,0,0,0,0,0,0,0,0,0,0,
0,0,0,0,0,0,0,0,0,0,0,0,0,0,0,0,0,0,0,0,0,0,0,0,0,0,0,0,0,0,0,0,0,0,0,0,0,0,0,139,0,0,0,141,0,0,0,0,0,0,0,0,0,0,0,0,0,0,0,0,0,0,0,0,
0,0,0,0,0,0,0,0,0,0,0,0,0,0,0,0,0,0,0,0,0,0,0,0,0,0,0,0,0,0,0,0,0,0,0,0,0,0,0,139,0,0,0,141,0,0,0,0,0,0,0,0,0,0,0,0,0,0,0,0,0,0,0,0,
0,0,0,0,0,0,0,0,0,0,0,0,0,0,0,0,0,0,0,0,0,0,0,0,0,0,0,0,0,0,0,0,0,0,0,0,0,0,0,139,0,0,0,141,0,0,0,0,0,0,0,0,0,0,0,0,0,0,0,0,0,0,0,0,
0,0,0,0,0,0,0,0,0,0,0,0,0,0,0,0,0,0,0,0,0,0,0,0,0,0,0,0,0,0,0,0,0,0,0,0,0,0,0,0,0,0,0,0,0,0,0,0,0,0,0,0,0,0,0,0,0,0,0,0,0,0,0,0,
0,0,0,0,0,0,0,0,0,0,0,0,0,0,0,0,0,0,0,0,0,0,0,0,0,0,0,0,0,0,0,0,0,0,0,0,0,0,0,0,0,0,0,0,0,0,0,0,0,0,0,0,0,0,0,0,0,0,0,0,0,0,0,0,
0,0,0,0,0,0,0,0,0,0,0,0,0,0,0,0,0,0,0,0,0,0,0,0,0,0,0,0,0,0,0,0,0,0,0,0,0,0,0,0,0,0,0,0,0,0,0,0,0,0,0,0,0,0,0,0,0,0,0,0,0,0,0,0,
0,0,0,0,0,0,0,0,0,0,0,0,0,0,0,0,0,0,0,0,0,0,0,0,0,0,0,0,0,0,0,0,0,0,0,0,0,0,0,0,0,0,0,0,0,0,0,0,0,0,0,0,0,0,0,0,0,0,0,0,0,0,0,0,
0,0,0,0,0,0,0,0,0,0,0,0,0,0,0,0,0,0,0,0,0,0,0,0,0,0,0,0,0,0,0,0,0,0,0,0,0,0,0,0,0,0,0,0,0,0,0,0,0,0,0,0,0,0,0,0,0,0,0,0,0,0,0,0,
0,0,0,0,0,0,0,0,0,0,0,0,0,0,0,0,0,0,0,0,0,0,0,0,0,0,0,0,0,0,0,0,0,0,136,137,137,137,137,137,138,0,0,0,0,0,0,0,0,0,0,0,0,0,0,0,0,0,0,0,0,0,0,0,
0,0,0,0,0,0,0,0,0,0,0,0,0,0,0,0,0,0,0,0,0,0,0,0,0,0,0,0,0,0,0,0,0,0,139,0,0,0,0,0,141,0,0,0,0,0,0,0,0,0,0,0,0,0,0,0,0,0,0,0,0,0,0,0,
0,0,0,0,0,0,0,0,0,0,0,0,0,0,0,0,0,0,0,0,0,0,0,0,0,0,0,0,0,0,0,0,0,0,139,0,0,0,0,0,141,0,0,0,0,0,0,0,0,0,0,0,0,0,0,0,0,0,0,0,0,0,0,0,
0,0,0,0,0,0,0,0,0,0,0,0,0,0,0,0,0,0,0,0,0,0,0,0,0,0,0,0,0,0,0,0,0,0,139,0,0,0,0,0,141,0,0,0,0,0,0,0,0,0,0,0,0,0,0,0,0,0,0,0,0,0,0,0,
0,0,0,0,0,0,0,0,0,0,0,0,0,0,0,0,0,0,0,0,0,0,0,0,0,0,0,0,0,0,0,0,0,0,139,0,0,0,0,0,141,0,0,0,0,0,0,0,0,0,0,0,0,0,0,0,0,0,0,0,0,0,0,0,
0,0,0,0,0,0,0,0,0,0,0,0,0,0,0,0,0,0,0,0,0,0,0,0,0,0,0,0,0,0,0,0,0,0,0,0,0,0,0,0,0,0,0,0,0,0,0,0,0,0,0,0,0,0,0,0,0,0,0,0,0,0,0,0,
0,0,0,0,0,0,0,0,0,0,0,0,0,0,0,0,0,0,0,0,0,0,0,0,0,0,0,0,0,0,0,0,0,0,0,0,0,0,0,0,0,0,0,0,0,0,0,0,0,0,0,0,0,0,0,0,0,0,0,0,0,0,0,0,
0,0,0,0,0,0,0,0,0,0,0,0,0,0,0,0,0,0,0,0,0,0,0,0,0,0,0,0,0,0,0,0,0,0,0,0,0,0,0,0,0,0,0,0,0,0,0,0,0,0,0,0,0,0,0,0,0,0,0,0,0,0,0,0,
0,0,0,0,0,0,0,0,0,0,0,0,0,0,0,0,0,0,0,0,0,0,0,0,0,0,0,0,0,0,0,0,0,0,0,0,0,0,0,0,0,0,0,0,0,0,0,0,0,0,0,0,0,0,0,0,0,0,0,0,0,0,0,0,
0,0,0,0,0,0,0,0,0,0,0,0,0,0,0,0,0,0,0,0,0,0,0,0,0,0,0,0,0,0,0,0,0,0,0,0,0,0,0,0,0,0,0,0,0,0,0,0,0,0,0,0,0,0,0,0,0,0,0,0,0,0,0,0,
0,0,0,0,0,0,0,0,0,0,0,0,0,0,0,0,0,0,0,0,0,0,0,0,0,0,0,0,0,0,0,0,0,0,0,0,0,0,0,0,0,0,0,0,0,0,0,0,0,0,0,0,0,0,0,0,0,0,0,0,0,0,0,0,
0,0,0,0,0,0,0,0,0,0,0,0,0,0,0,0,0,0,0,0,0,0,0,0,0,0,0,0,0,0,0,0,0,0,0,0,0,0,0,0,0,0,0,0,0,0,0,0,0,0,0,0,0,0,0,0,0,0,0,0,0,0,0,0,
0,0,0,0,0,0,0,0,0,0,0,0,0,0,0,0,0,0,0,0,0,0,0,0,0,0,0,0,0,0,0,0,0,0,0,0,0,0,0,0,0,0,0,0,0,0,0,0,0,0,0,0,0,0,0,0,0,0,0,0,0,0,0,0,
0,0,0,0,0,0,0,0,0,0,0,0,0,0,0,0,0,0,0,0,0,0,0,0,0,0,0,0,0,0,0,0,0,0,0,0,0,0,0,0,0,0,0,0,0,0,0,0,0,0,0,0,0,0,0,0,0,0,0,0,0,0,0,0,
0,0,0,0,0,0,0,0,0,0,0,0,0,0,0,0,0,0,0,0,0,0,0,0,0,0,0,0,0,0,0,0,0,0,0,0,0,0,0,0,0,0,0,0,0,0,0,0,0,0,0,0,0,0,0,0,0,0,0,0,0,0,0,0,
0,0,0,0,0,0,0,0,0,0,0,0,0,0,0,0,0,0,0,0,0,0,0,0,0,0,0,0,0,0,0,0,0,0,0,0,0,0,0,0,0,0,0,0,0,0,0,0,0,0,0,0,0,0,0,0,0,0,0,0,0,0,0,0,
0,0,0,0,0,0,0,0,0,0,0,0,0,0,0,0,0,0,0,0,0,0,0,0,0,0,0,0,0,0,0,0,0,0,0,0,0,0,0,0,0,0,0,0,0,0,0,0,0,0,0,0,0,0,0,0,0,0,0,0,0,0,0,0,
0,0,0,0,0,0,0,0,0,0,0,0,0,0,0,0,0,0,0,0,0,0,0,0,0,0,0,0,0,0,0,0,0,0,0,0,0,0,0,0,0,0,0,0,0,0,0,0,0,0,0,0,0,0,0,0,0,0,0,0,0,0,0,0,
0,0,0,0,0,0,0,0,0,0,0,0,0,0,0,0,0,0,0,0,0,0,0,0,0,0,0,0,0,0,0,0,0,0,0,0,0,0,0,0,0,0,0,0,0,0,0,0,0,0,0,0,0,0,0,0,0,0,0,0,0,0,0,0,
0,0,0,0,0,0,0,0,0,0,0,0,0,0,0,0,0,0,0,0,0,0,0,0,0,0,0,0,0,0,0,0,0,0,0,0,0,0,0,0,0,0,0,0,0,0,0,0,0,0,0,0,0,0,0,0,0,0,0,0,0,0,0,0,
0,0,0,0,0,0,0,0,0,0,0,0,0,0,0,0,0,0,0,0,0,0,0,0,0,0,0,0,0,0,0,0,0,0,0,0,0,0,0,0,0,0,0,0,0,0,0,0,0,0,0,0,0,0,0,0,0,0,0,0,0,0,0,0,
0,0,0,0,0,0,0,0,0,0,0,0,0,0,0,0,0,0,0,0,0,0,0,0,0,0,0,0,0,0,0,0,0,0,0,0,0,0,0,0,0,0,0,0,0,0,0,0,0,0,0,0,0,0,0,0,0,0,0,0,0,0,0,0,
0,0,0,0,0,0,0,0,0,0,0,0,0,0,0,0,0,0,0,0,0,0,0,0,0,0,0,0,0,0,0,0,0,0,0,0,0,0,0,0,0,0,0,0,0,0,0,0,0,0,0,0,0,0,0,0,0,0,0,0,0,0,0,0,
0,0,0,0,0,0,0,0,0,0,0,0,0,0,0,0,0,0,0,0,0,0,0,0,0,0,0,0,0,0,0,0,0,0,0,0,0,0,0,0,0,0,0,0,0,0,0,0,0,0,0,0,0,0,0,0,0,0,0,0,0,0,0,0,
0,0,0,0,0,0,0,0,0,0,0,0,0,0,0,0,0,0,0,0,0,0,0,0,0,0,0,0,0,0,0,0,0,0,0,0,0,0,0,0,0,0,0,0,0,0,0,0,0,0,0,0,0,0,0,0,0,0,0,0,0,0,0,0,
0,0,0,0,0,0,0,0,0,0,0,0,0,0,0,0,0,0,0,0,0,0,0,0,0,0,0,0,0,0,0,0,0,0,0,0,0,0,0,0,0,0,0,0,0,0,0,0,0,0,0,0,0,0,0,0,0,0,0,0,0,0,0,0,
0,0,0,0,0,0,0,0,0,0,0,0,0,0,0,0,0,0,0,0,0,0,0,0,0,0,0,0,0,0,0,0,0,0,0,0,0,0,0,0,0,0,0,0,0,0,0,0,0,0,0,0,0,0,0,0,0,0,0,0,0,0,0,0,
0,0,0,0,0,0,0,0,0,0,0,0,0,0,0,0,0,0,0,0,0,0,0,0,0,0,0,0,0,0,0,0,0,0,0,0,0,0,0,0,0,0,0,0,0,0,0,0,0,0,0,0,0,0,0,0,0,0,0,0,0,0,0,0,
0,0,0,0,0,0,0,0,0,0,0,0,0,0,0,0,0,0,0,0,0,0,0,0,0,0,0,0,0,0,0,0,0,0,0,0,0,0,0,0,0,0,0,0,0,0,0,0,0,0,0,0,0,0,0,0,0,0,0,0,0,0,0,0,
0,0,0,0,0,0,0,0,0,0,0,0,0,0,0,0,0,0,0,0,0,0,0,0,0,0,0,0,0,0,0,0,0,0,0,0,0,0,0,0,0,0,0,0,0,0,0,0,0,0,0,0,0,0,0,0,0,0,0,0,0,0,0,0,
0,0,0,0,0,0,0,0,0,0,0,0,0,0,0,0,0,0,0,0,0,0,0,0,0,0,0,0,0,0,0,0,0,0,0,0,0,0,0,0,0,0,0,0,0,0,0,0,0,0,0,0,0,0,0,0,0,0,0,0,0,0,0,0,
0,0,0,0,0,0,0,0,0,0,0,0,0,0,0,0,0,0,0,0,0,0,0,0,0,0,0,0,0,0,0,0,0,0,0,0,0,0,0,0,0,0,0,0,0,0,0,0,0,0,0,0,0,0,0,0,0,0,0,0,0,0,0,0,
0,0,0,0,0,0,0,0,0,0,0,0,0,0,0,0,0,0,0,0,0,0,0,0,0,0,0,0,0,0,0,0,0,0,0,0,0,0,0,0,0,0,0,0,0,0,0,0,0,0,0,0,0,0,0,0,0,0,0,0,0,0,0,0,
0,0,0,0,0,0,0,0,0,0,0,0,0,0,0,0,0,0,0,0,0,0,0,0,0,0,0,0,0,0,0,0,0,0,0,0,0,0,0,0,0,0,0,0,0,0,0,0,0,0,0,0,0,0,0,0,0,0,0,0,0,0,0,0,
0,0,0,0,0,0,0,0,0,0,0,0,0,0,0,0,0,0,0,0,0,0,0,0,0,0,0,0,0,0,0,0,0,0,0,0,0,0,0,0,0,0,0,0,0,0,0,0,0,0,0,0,0,0,0,0,0,0,0,0,0,0,0,0,
0,0,0,0,0,0,0,0,0,0,0,0,0,0,0,0,0,0,0,0,0,0,0,0,0,0,0,0,0,0,0,0,0,0,0,0,0,0,0,0,0,0,0,0,0,0,0,0,0,0,0,0,0,0,0,0,0,0,0,0,0,0,0,0,
0,0,0,0,0,0,0,0,0,0,0,0,0,0,0,0,0,0,0,0,0,0,0,0,0,0,0,0,0,0,0,0,0,0,0,0,0,0,0,0,0,0,0,0,0,0,0,0,0,0,0,0,0,0,0,0,0,0,0,0,0,0,0,0,
0,0,0,0,0,0,0,0,0,0,0,0,0,0,0,0,0,0,0,0,0,0,0,0,0,0,0,0,0,0,0,0,0,0,0,0,0,0,0,0,0,0,0,0,0,0,0,0,0,0,0,0,0,0,0,0,0,0,0,0,0,0,0,0,
0,0,0,0,0,0,0,0,0,0,0,0,0,0,0,0,0,0,0,0,0,0,0,0,0,0,0,0,0,0,0,0,0,0,0,0,0,0,0,0,0,0,0,0,0,0,0,0,0,0,0,0,0,0,0,0,0,0,0,0,0,0,0,0,
0,0,0,0,0,0,0,0,0,0,0,0,0,0,0,0,0,0,0,0,0,0,0,0,0,0,0,0,0,0,0,0,0,0,0,0,0,0,0,0,0,0,0,0,0,0,0,0,0,0,0,0,0,0,0,0,0,0,0,0,0,0,0,0,
0,0,0,0,0,0,0,0,0,0,0,0,0,0,0,0,0,0,0,0,0,0,0,0,0,0,0,0,0,0,0,0,0,0,0,0,0,0,0,0,0,0,0,0,0,0,0,0,0,0,0,0,0,0,0,0,0,0,0,0,0,0,0,0
</data></layer><layer id="4" name="BUILDINGS" width="64" height="64"><data encoding="csv">0,0,0,0,0,0,0,0,0,0,0,0,0,0,0,0,0,0,0,0,0,0,0,0,0,0,0,0,0,0,0,0,0,0,0,0,0,0,0,0,0,0,0,0,0,0,0,0,0,0,0,0,0,0,0,0,0,0,0,0,0,0,0,0,
0,0,0,0,0,0,0,0,0,0,0,0,0,0,0,0,0,0,0,0,0,0,0,0,0,0,0,0,0,0,0,0,0,0,0,0,0,0,0,0,0,0,0,0,0,0,0,0,0,0,0,0,0,0,0,0,0,0,0,0,0,0,0,0,
0,0,0,0,0,0,0,0,0,0,0,0,0,0,0,0,0,0,0,0,0,0,0,0,0,0,0,0,0,0,0,0,0,0,0,0,0,0,0,0,0,0,0,0,0,0,0,0,0,0,0,0,0,0,0,0,0,0,0,0,0,0,0,0,
0,0,0,0,0,0,0,0,0,0,0,0,0,0,0,0,0,0,0,0,0,0,0,0,0,0,0,0,0,0,0,0,0,0,0,0,0,0,0,0,0,0,0,0,0,0,0,0,0,0,0,0,0,0,0,0,0,0,0,0,0,0,0,0,
0,0,0,0,0,0,0,0,0,0,0,0,0,0,0,0,0,0,0,0,0,0,0,0,0,0,0,0,0,0,0,0,0,0,0,0,0,0,0,0,0,0,0,0,0,0,0,0,0,0,0,0,0,0,0,0,0,0,0,0,0,0,0,0,
0,0,0,0,0,0,0,0,0,0,0,0,0,0,0,0,0,0,0,0,0,0,0,0,0,0,0,0,0,0,0,0,0,0,0,0,0,0,0,0,0,0,0,0,0,0,0,0,0,0,0,0,0,0,0,0,0,0,0,0,0,0,0,0,
0,0,0,0,0,0,0,0,0,0,0,0,0,0,0,0,0,0,0,0,0,0,0,0,0,0,0,0,0,0,0,0,0,0,0,0,0,0,0,0,0,0,0,0,0,0,0,0,0,0,0,0,0,0,0,0,0,0,0,0,0,0,0,0,
0,0,0,0,0,0,0,0,0,0,0,0,0,0,0,0,0,0,0,0,0,0,0,0,0,0,0,0,0,0,0,0,0,0,0,0,0,0,0,0,0,0,0,0,0,0,0,0,0,0,0,0,0,0,0,0,0,0,0,0,0,0,0,0,
0,0,0,0,0,0,0,0,0,0,0,0,0,0,0,0,0,0,0,0,0,0,0,0,0,0,0,0,0,0,0,0,0,0,0,0,0,0,0,0,0,0,0,0,0,0,0,0,0,0,0,0,0,0,0,0,0,0,0,0,0,0,0,0,
0,0,0,0,0,0,0,0,0,0,0,0,0,0,0,0,0,0,0,0,0,0,0,0,0,0,0,0,0,0,0,0,0,0,0,0,0,0,0,0,0,0,0,0,0,0,0,0,0,0,0,0,0,0,0,0,0,0,0,0,0,0,0,0,
0,0,0,0,0,0,0,0,0,0,0,0,0,0,0,0,0,0,0,0,0,0,0,0,0,0,0,0,0,0,0,0,0,0,0,0,0,0,0,0,0,0,0,0,0,0,0,0,0,0,0,0,0,0,0,0,0,0,0,0,0,0,0,0,
0,0,0,0,0,0,0,0,0,0,0,0,0,0,0,0,0,0,0,0,0,0,0,0,0,0,0,0,0,0,0,0,0,0,0,0,0,0,0,0,0,0,0,0,0,0,0,0,0,0,0,0,0,0,0,0,0,0,0,0,0,0,0,0,
0,0,0,0,0,0,0,0,0,0,0,0,0,0,0,0,0,0,0,0,0,0,0,0,0,0,0,0,0,0,0,0,0,0,0,0,0,0,0,0,0,0,0,0,0,0,0,0,0,0,0,0,0,0,0,0,0,0,0,0,0,0,0,0,
0,0,0,0,0,0,0,0,0,0,0,0,0,0,0,0,0,0,0,0,0,0,0,0,0,0,0,0,0,0,0,0,0,0,0,0,0,0,0,0,0,0,0,0,0,0,0,0,0,0,0,0,0,0,0,0,0,0,0,0,0,0,0,0,
0,0,0,0,0,0,0,0,0,0,0,0,0,0,0,0,0,0,0,0,0,0,0,0,0,0,0,0,0,0,0,0,0,0,0,0,0,0,0,0,0,0,0,0,0,0,0,0,0,0,0,0,0,0,0,0,0,0,0,0,0,0,0,0,
0,0,0,0,0,0,0,0,0,0,0,0,0,0,0,0,0,0,0,0,0,0,0,0,0,0,0,0,0,0,0,0,0,0,0,0,0,0,0,0,0,0,0,0,0,0,0,0,0,0,0,0,0,0,0,0,0,0,0,0,0,0,0,0,
0,0,0,0,0,0,0,0,0,0,0,0,0,0,0,0,0,0,0,0,0,0,0,0,0,0,0,0,0,0,0,0,0,0,0,0,0,0,0,555,556,557,558,559,0,0,0,0,0,0,0,0,0,0,0,0,0,0,0,0,0,0,0,0,
0,0,0,0,0,0,0,0,0,0,0,0,0,0,0,0,0,0,0,0,0,0,0,0,0,0,0,0,0,0,0,0,0,0,0,0,0,0,0,582,583,584,585,586,0,0,0,0,0,0,0,0,0,0,0,0,0,0,0,0,0,0,0,0,
0,0,0,0,0,0,0,0,0,0,0,0,0,0,0,0,0,0,0,0,0,835,836,837,838,839,840,0,0,0,0,0,0,0,0,0,0,0,0,609,610,611,612,613,0,0,0,0,0,0,0,0,0,0,0,0,0,0,0,0,0,0,0,0,
0,0,0,0,0,0,0,0,0,0,0,0,0,0,195,196,197,198,0,0,0,862,863,864,865,866,867,0,0,0,0,0,0,0,0,0,0,0,0,0,0,0,0,0,0,0,0,0,0,0,0,0,0,0,0,0,0,0,0,0,0,0,0,0,
0,0,0,0,0,0,0,0,0,0,0,0,0,0,222,223,224,225,0,0,0,889,890,891,892,893,894,0,0,0,0,0,0,0,0,0,0,0,0,0,0,0,0,0,0,0,0,0,0,0,0,0,0,0,0,0,0,0,0,0,0,0,0,0,
0,0,0,0,0,0,0,0,0,0,0,0,0,0,249,250,251,252,0,0,0,916,917,918,919,920,921,0,0,0,0,0,0,0,0,0,0,0,0,0,0,0,0,0,0,0,0,0,0,0,0,0,0,0,0,0,0,0,0,0,0,0,0,0,
0,0,0,0,0,0,0,0,0,0,0,0,0,0,276,277,278,279,0,0,0,943,944,945,946,947,948,0,0,0,0,0,0,0,0,0,0,0,0,0,0,0,0,0,0,0,0,0,0,0,0,0,0,0,0,0,0,0,0,0,0,0,0,0,
0,0,0,0,0,0,0,0,0,0,0,0,0,0,0,0,0,0,0,0,0,0,0,0,0,0,0,0,0,0,0,0,0,0,0,0,0,0,0,0,0,0,0,0,0,0,0,0,0,0,0,0,0,0,0,0,0,0,0,0,0,0,0,0,
0,0,0,0,0,0,0,0,0,0,0,0,0,0,0,0,0,0,0,0,0,0,0,0,0,0,0,0,0,0,0,0,0,0,0,0,0,0,0,0,0,0,0,0,0,0,0,0,0,0,0,0,0,0,0,0,0,0,0,0,0,0,0,0,
0,0,0,0,0,0,0,0,0,0,0,0,0,0,0,0,0,0,0,0,0,307,308,309,310,311,0,0,0,0,0,0,0,0,0,0,0,0,0,0,0,0,0,0,0,0,0,0,0,0,0,0,0,0,0,0,0,0,0,0,0,0,0,0,
0,0,0,0,0,0,0,0,0,0,0,0,0,0,0,0,0,0,0,0,0,334,335,336,337,338,0,0,0,0,0,0,0,0,538,539,540,541,542,543,544,0,0,0,0,0,0,0,0,0,0,0,0,0,0,0,0,0,0,0,0,0,0,0,
0,0,0,0,0,0,0,0,0,0,0,0,0,0,0,0,0,0,0,0,0,361,362,363,364,365,0,0,0,0,0,0,0,0,565,566,567,568,569,570,571,0,0,0,0,0,0,0,0,0,0,0,0,0,0,0,0,0,0,0,0,0,0,0,
0,0,0,0,0,0,0,0,0,0,0,0,0,0,0,0,0,0,0,0,0,388,389,390,391,392,0,0,0,0,0,0,0,0,592,593,594,595,596,597,598,0,312,313,314,315,316,0,0,0,0,0,0,0,0,0,0,0,0,0,0,0,0,0,
0,0,0,0,0,0,0,0,0,0,0,0,0,0,0,0,0,0,0,0,0,0,0,0,0,0,0,0,0,0,0,0,0,0,619,620,621,622,623,624,625,0,339,340,341,342,343,0,0,0,0,0,0,0,0,0,0,0,0,0,0,0,0,0,
0,0,0,0,0,0,0,0,0,0,0,0,0,0,0,0,0,0,0,0,0,0,0,0,0,0,0,0,0,0,0,0,0,0,646,647,648,649,650,651,652,0,366,367,368,369,370,0,0,0,0,0,0,0,0,0,0,0,0,0,0,0,0,0,
0,0,0,0,0,0,0,0,0,0,0,0,0,0,0,0,0,0,0,0,0,0,0,0,0,0,0,0,0,0,0,0,0,0,673,674,675,676,677,678,679,0,393,394,395,396,397,0,0,0,0,0,0,0,0,0,0,0,0,0,0,0,0,0,
0,0,0,0,0,0,0,0,0,0,0,0,0,0,0,0,0,0,0,0,0,0,0,0,0,0,0,0,209,210,211,212,213,0,0,0,0,0,0,0,0,0,0,0,0,0,0,0,0,0,0,0,0,0,0,0,0,0,0,0,0,0,0,0,
0,0,0,0,0,0,0,0,0,0,0,0,0,0,0,0,0,0,0,0,0,0,0,0,0,0,0,0,236,237,238,239,240,0,0,0,0,0,0,0,0,0,0,0,0,0,0,0,0,0,0,0,0,0,0,0,0,0,0,0,0,0,0,0,
0,0,0,0,0,0,0,0,0,0,0,0,0,0,0,0,0,0,0,0,0,0,0,0,0,0,0,0,263,264,265,266,267,0,0,0,0,0,0,0,0,0,0,0,0,0,0,0,0,0,0,0,0,0,0,0,0,0,0,0,0,0,0,0,
0,0,0,0,0,0,0,0,0,0,0,0,0,0,0,0,0,0,0,0,0,0,0,0,0,0,0,0,290,291,292,293,294,0,0,0,0,0,0,0,0,0,0,0,0,0,0,0,0,0,0,0,0,0,0,0,0,0,0,0,0,0,0,0,
0,0,0,0,0,0,0,0,0,0,0,0,0,0,0,0,0,0,0,0,0,0,0,0,0,0,0,0,317,318,319,320,321,0,0,0,0,0,0,0,0,0,0,0,0,0,0,0,0,0,0,0,0,0,0,0,0,0,0,0,0,0,0,0,
0,0,0,0,0,0,0,0,0,0,0,0,0,0,0,0,0,0,0,0,0,0,0,0,0,0,0,0,0,0,0,0,0,0,0,0,0,0,0,0,0,0,0,0,0,0,0,0,0,0,0,0,0,0,0,0,0,0,0,0,0,0,0,0,
0,0,0,0,0,0,0,0,0,0,0,0,0,0,0,0,0,0,0,0,0,0,0,0,0,0,0,0,0,0,0,0,0,0,0,0,0,0,0,0,0,0,0,0,0,0,0,0,0,0,0,0,0,0,0,0,0,0,0,0,0,0,0,0,
0,0,0,0,0,0,0,0,0,0,0,0,0,0,0,0,0,0,0,0,0,0,0,0,0,0,0,0,0,0,0,0,0,0,0,0,0,0,0,0,0,0,0,0,0,0,0,0,0,0,0,0,0,0,0,0,0,0,0,0,0,0,0,0,
0,0,0,0,0,0,0,0,0,0,0,0,0,0,0,0,0,0,0,0,0,0,0,0,0,0,0,0,0,0,0,0,0,0,0,0,0,0,0,0,0,0,0,0,0,0,0,0,0,0,0,0,0,0,0,0,0,0,0,0,0,0,0,0,
0,0,0,0,0,0,0,0,0,0,0,0,0,0,0,0,0,0,0,0,0,0,0,0,0,0,0,0,0,0,681,682,683,684,0,0,0,555,556,557,558,559,0,0,0,0,0,0,0,0,0,0,0,0,0,0,0,0,0,0,0,0,0,0,
0,0,0,0,0,0,0,0,0,0,0,0,0,0,0,0,0,0,0,0,0,0,0,0,0,0,0,0,0,0,708,709,710,711,0,0,0,582,583,584,585,586,0,0,0,0,0,0,0,0,0,0,0,0,0,0,0,0,0,0,0,0,0,0,
0,0,0,0,0,0,0,0,0,0,0,0,0,0,0,0,0,0,0,0,0,0,0,0,0,0,0,0,0,0,735,736,737,738,0,0,0,609,610,611,612,613,0,0,0,0,0,0,0,0,0,0,0,0,0,0,0,0,0,0,0,0,0,0,
0,0,0,0,0,0,0,0,0,0,0,0,0,0,0,0,0,0,0,0,0,0,0,0,0,0,0,0,0,0,762,763,764,765,0,0,0,0,0,0,0,0,0,0,0,0,0,0,0,0,0,0,0,0,0,0,0,0,0,0,0,0,0,0,
0,0,0,0,0,0,0,0,0,0,0,0,0,0,0,0,0,0,0,0,0,0,0,0,0,0,0,0,0,0,789,790,791,792,0,0,0,0,0,0,0,0,0,0,0,0,0,0,0,0,0,0,0,0,0,0,0,0,0,0,0,0,0,0,
0,0,0,0,0,0,0,0,0,0,0,0,0,0,0,0,0,0,0,0,0,0,0,0,0,0,0,0,0,0,0,0,0,0,0,0,0,0,0,0,0,0,0,0,0,0,0,0,0,0,0,0,0,0,0,0,0,0,0,0,0,0,0,0,
0,0,0,0,0,0,0,0,0,0,0,0,0,0,0,0,0,0,0,0,0,0,0,0,0,0,0,0,0,0,0,0,0,0,0,0,0,0,0,0,0,0,0,0,0,0,0,0,0,0,0,0,0,0,0,0,0,0,0,0,0,0,0,0,
0,0,0,0,0,0,0,0,0,0,0,0,0,0,0,0,0,0,0,0,0,0,0,0,0,0,0,0,0,0,0,0,0,0,0,0,0,0,0,0,0,0,0,0,0,0,0,0,0,0,0,0,0,0,0,0,0,0,0,0,0,0,0,0,
0,0,0,0,0,0,0,0,0,0,0,0,0,0,0,0,0,0,0,0,0,0,0,0,0,0,0,0,0,0,0,0,0,0,0,0,0,0,0,0,0,0,0,0,0,0,0,0,0,0,0,0,0,0,0,0,0,0,0,0,0,0,0,0,
0,0,0,0,0,0,0,0,0,0,0,0,0,0,0,0,0,0,0,0,0,0,0,0,0,0,0,0,0,0,0,0,0,0,0,0,0,0,0,0,0,0,0,0,0,0,0,0,0,0,0,0,0,0,0,0,0,0,0,0,0,0,0,0,
0,0,0,0,0,0,0,0,0,0,0,0,0,0,0,0,0,0,0,0,0,0,0,0,0,0,0,0,0,0,0,0,0,0,0,0,0,0,0,0,0,0,0,0,0,0,0,0,0,0,0,0,0,0,0,0,0,0,0,0,0,0,0,0,
0,0,0,0,0,0,0,0,0,0,0,0,0,0,0,0,0,0,0,0,0,0,0,0,0,0,0,0,0,0,0,0,0,0,0,0,0,0,0,0,0,0,0,0,0,0,0,0,0,0,0,0,0,0,0,0,0,0,0,0,0,0,0,0,
0,0,0,0,0,0,0,0,0,0,0,0,0,0,0,0,0,0,0,0,0,0,0,0,0,0,0,0,0,0,0,0,0,0,0,0,0,0,0,0,0,0,0,0,0,0,0,0,0,0,0,0,0,0,0,0,0,0,0,0,0,0,0,0,
0,0,0,0,0,0,0,0,0,0,0,0,0,0,0,0,0,0,0,0,0,0,0,0,0,0,0,0,0,0,0,0,0,0,0,0,0,0,0,0,0,0,0,0,0,0,0,0,0,0,0,0,0,0,0,0,0,0,0,0,0,0,0,0,
0,0,0,0,0,0,0,0,0,0,0,0,0,0,0,0,0,0,0,0,0,0,0,0,0,0,0,0,0,0,0,0,0,0,0,0,0,0,0,0,0,0,0,0,0,0,0,0,0,0,0,0,0,0,0,0,0,0,0,0,0,0,0,0,
0,0,0,0,0,0,0,0,0,0,0,0,0,0,0,0,0,0,0,0,0,0,0,0,0,0,0,0,0,0,0,0,0,0,0,0,0,0,0,0,0,0,0,0,0,0,0,0,0,0,0,0,0,0,0,0,0,0,0,0,0,0,0,0,
0,0,0,0,0,0,0,0,0,0,0,0,0,0,0,0,0,0,0,0,0,0,0,0,0,0,0,0,0,0,0,0,0,0,0,0,0,0,0,0,0,0,0,0,0,0,0,0,0,0,0,0,0,0,0,0,0,0,0,0,0,0,0,0,
0,0,0,0,0,0,0,0,0,0,0,0,0,0,0,0,0,0,0,0,0,0,0,0,0,0,0,0,0,0,0,0,0,0,0,0,0,0,0,0,0,0,0,0,0,0,0,0,0,0,0,0,0,0,0,0,0,0,0,0,0,0,0,0,
0,0,0,0,0,0,0,0,0,0,0,0,0,0,0,0,0,0,0,0,0,0,0,0,0,0,0,0,0,0,0,0,0,0,0,0,0,0,0,0,0,0,0,0,0,0,0,0,0,0,0,0,0,0,0,0,0,0,0,0,0,0,0,0,
0,0,0,0,0,0,0,0,0,0,0,0,0,0,0,0,0,0,0,0,0,0,0,0,0,0,0,0,0,0,0,0,0,0,0,0,0,0,0,0,0,0,0,0,0,0,0,0,0,0,0,0,0,0,0,0,0,0,0,0,0,0,0,0,
0,0,0,0,0,0,0,0,0,0,0,0,0,0,0,0,0,0,0,0,0,0,0,0,0,0,0,0,0,0,0,0,0,0,0,0,0,0,0,0,0,0,0,0,0,0,0,0,0,0,0,0,0,0,0,0,0,0,0,0,0,0,0,0,
0,0,0,0,0,0,0,0,0,0,0,0,0,0,0,0,0,0,0,0,0,0,0,0,0,0,0,0,0,0,0,0,0,0,0,0,0,0,0,0,0,0,0,0,0,0,0,0,0,0,0,0,0,0,0,0,0,0,0,0,0,0,0,0,
0,0,0,0,0,0,0,0,0,0,0,0,0,0,0,0,0,0,0,0,0,0,0,0,0,0,0,0,0,0,0,0,0,0,0,0,0,0,0,0,0,0,0,0,0,0,0,0,0,0,0,0,0,0,0,0,0,0,0,0,0,0,0,0
</data></layer><layer id="5" name="GROUND1" width="64" height="64"><data encoding="csv">0,1703,0,0,0,1732,1733,1703,0,1703,0,0,0,0,0,0,0,0,0,0,0,0,0,0,1703,0,1732,1733,1703,0,1732,1733,1703,0,0,0,0,1732,1733,0,0,0,0,0,0,0,0,0,0,1703,0,0,0,0,0,0,0,0,0,0,0,0,0,0,
1732,1733,0,0,0,1732,1733,0,1732,1733,1732,1733,1732,1733,1703,0,0,0,0,0,0,0,0,0,1732,1733,0,0,1732,1733,0,1703,0,0,0,1732,1733,1732,1733,0,0,0,0,0,0,1703,0,0,0,1703,0,0,0,0,0,0,0,0,0,0,0,0,0,0,
0,0,0,0,0,1732,1733,0,1703,0,1732,1733,0,1732,1733,1732,1733,0,0,0,0,0,0,0,0,1732,1733,1703,0,1703,0,1703,0,0,0,0,1732,1733,0,0,0,0,0,0,0,0,0,1703,0,1703,0,0,0,0,0,0,0,0,0,0,0,0,0,0,
0,0,0,0,0,0,1703,0,1732,1733,1732,1733,0,0,1703,0,0,0,0,0,0,0,0,0,1732,1733,1732,1733,1732,1733,1703,0,0,0,0,0,0,0,0,0,0,0,0,0,0,0,0,0,0,1703,0,0,0,0,0,0,0,0,0,0,0,0,0,0,
0,0,0,0,0,0,0,0,0,0,0,0,0,0,0,0,0,0,0,0,0,0,0,0,0,0,0,0,0,0,0,0,0,0,0,0,0,0,0,0,0,0,0,0,0,0,0,1703,0,0,0,0,0,0,0,0,0,1703,0,0,0,0,0,0,
0,0,0,0,0,0,0,0,0,0,0,0,0,0,0,0,0,0,0,0,0,0,0,0,0,0,0,0,0,0,1732,1733,1732,1733,0,0,0,0,0,0,0,0,0,0,0,1732,1733,1703,0,0,0,0,0,0,0,0,0,0,0,0,0,0,0,0,
0,0,0,0,0,0,0,0,0,0,0,0,0,0,0,0,0,0,0,0,0,0,0,0,0,0,0,0,0,0,1732,1733,1703,0,0,0,0,0,0,0,0,0,0,0,0,1732,1733,0,0,0,0,0,0,0,0,0,0,0,0,0,0,0,0,0,
0,0,0,0,0,0,0,0,0,0,0,0,0,0,0,0,0,0,0,0,0,0,0,0,0,0,0,0,1703,0,1732,1733,1732,1733,0,0,0,0,0,0,0,0,0,0,1732,1733,0,0,1703,0,0,0,0,0,0,0,0,0,0,0,0,0,0,0,
0,0,0,0,0,0,0,0,0,0,0,0,0,0,0,0,0,0,0,0,0,0,0,0,0,0,1732,1733,1732,1733,1732,1733,1732,1733,0,0,0,0,0,0,0,0,0,0,1732,1733,1732,1733,1703,0,0,0,0,0,0,0,0,0,0,0,0,0,0,0,
0,0,0,0,0,0,0,0,0,0,0,0,0,0,0,0,0,0,0,0,0,0,1732,1733,1703,0,1732,1733,0,1732,1733,1732,1733,1703,0,0,0,0,0,0,0,0,0,0,1732,1733,0,1703,0,0,1732,1733,1703,0,0,0,0,0,0,0,0,0,0,0,
0,0,0,0,0,0,0,0,0,0,0,0,0,0,0,0,0,0,0,0,0,1732,1733,0,1732,1733,1732,1733,1732,1733,1732,1733,0,0,0,0,0,0,0,0,0,0,0,1732,1733,1732,1733,0,0,0,0,1732,1733,0,0,0,0,0,0,0,0,0,0,0,
0,0,0,0,0,0,0,0,0,0,0,0,0,1703,0,0,0,0,0,0,0,0,1703,0,1703,0,1732,1733,1732,1733,1732,1733,1732,1733,0,0,0,0,0,0,0,0,1703,0,1732,1733,0,1703,0,0,1732,1733,0,1732,1733,0,0,0,0,0,0,0,0,0,
0,0,0,0,0,0,0,0,0,0,0,0,0,1732,1733,0,0,0,0,0,1732,1733,0,1703,0,1703,0,1732,1733,0,1732,1733,0,0,0,0,0,0,0,0,0,1703,0,1732,1733,0,1732,1733,0,1703,0,1703,0,0,1703,0,0,0,0,0,0,0,0,0,
0,0,0,0,0,1732,1733,1732,1733,1703,0,0,0,0,1732,1733,0,0,0,0,1732,1733,1732,1733,1732,1733,1732,1733,0,0,0,0,0,1732,1733,0,0,0,0,0,0,0,0,0,0,1703,0,0,0,1732,1733,1732,1733,0,1703,0,0,0,0,0,0,0,0,0,
0,0,0,0,1732,1733,0,1703,0,0,0,0,0,0,0,0,0,0,0,0,0,0,0,0,0,0,0,0,0,1732,1733,0,0,1703,0,1703,0,0,0,0,0,0,0,0,1703,0,1703,0,0,1703,0,0,1732,1733,1703,0,0,0,0,0,0,0,0,0,
0,0,0,0,0,0,0,0,0,1732,1733,0,0,1703,0,0,1703,0,0,0,0,0,1732,1733,0,1732,1733,1732,1733,1732,1733,1703,0,1732,1733,0,0,0,0,0,0,0,0,0,0,1732,1733,0,1732,1733,0,1732,1733,1732,1733,0,0,0,0,0,0,0,0,0,
0,0,1732,1733,0,1732,1733,1732,1733,1732,1733,1732,1733,1732,1733,1732,1733,0,0,0,0,0,0,1703,0,1732,1733,1732,1733,0,1703,0,0,0,0,1732,1733,0,0,0,0,0,0,0,1732,1733,0,0,0,1732,1733,1703,0,0,1703,0,0,0,0,0,0,0,0,0,
0,1732,1733,1703,0,1732,1733,1703,0,0,0,0,1732,1733,1732,1733,1703,0,0,0,0,0,0,0,0,0,0,1703,0,1703,0,1703,0,1732,1733,1732,1733,0,0,0,0,0,0,0,1732,1733,0,1732,1733,1732,1733,0,1732,1733,1703,0,0,0,0,0,0,0,0,0,
1703,0,0,0,1703,0,0,1703,0,0,1703,0,1703,0,0,0,0,0,0,0,0,0,0,0,0,0,0,0,1732,1733,0,0,0,0,0,0,0,0,0,0,0,0,0,0,0,1703,0,1703,0,1732,1733,1703,0,1732,1733,0,0,0,0,0,0,0,0,0,
1732,1733,0,1732,1733,0,1732,1733,1703,0,0,0,1703,0,0,0,0,0,1703,0,0,0,0,0,0,0,0,1732,1733,1732,1733,1732,1733,1703,0,0,0,0,0,0,0,0,0,0,1703,0,0,0,0,1732,1733,1732,1733,1703,0,0,0,0,0,0,0,0,0,0,
1732,1733,0,1732,1733,0,1703,0,0,0,0,0,0,0,0,0,0,0,1703,0,0,0,0,0,0,0,0,1703,0,1732,1733,0,0,0,0,0,0,0,0,0,0,0,1703,0,1732,1733,0,0,1732,1733,0,1732,1733,1703,0,0,0,0,0,0,0,0,0,0,
0,1703,0,1703,0,1703,0,0,0,0,0,0,0,0,0,0,0,0,0,0,0,0,0,0,0,0,0,1732,1733,1732,1733,1703,0,0,0,0,0,0,0,0,0,0,1732,1733,1703,0,1703,0,0,1703,0,0,0,0,0,0,0,0,0,0,0,0,0,0,
0,0,0,0,0,0,0,0,0,0,0,0,0,0,0,0,0,0,0,0,0,0,0,0,0,0,0,0,1732,1733,0,0,0,0,0,0,0,0,0,0,0,0,1732,1733,0,1732,1733,0,0,0,0,0,0,0,0,0,0,0,0,0,0,0,0,0,
1732,1733,0,1703,0,0,0,0,0,0,0,0,0,0,0,0,0,0,0,0,0,0,0,0,0,0,0,0,0,0,0,0,0,0,0,0,0,0,0,0,0,0,1732,1733,1703,0,1703,0,0,0,0,0,0,0,0,0,0,0,0,0,0,0,0,0,
0,0,0,0,0,0,0,0,0,1703,0,0,0,1703,0,0,0,0,0,0,0,0,0,0,0,0,0,0,0,0,0,0,0,0,0,0,0,0,0,0,0,0,0,1732,1733,0,0,0,0,0,0,0,0,0,1732,1733,0,0,0,0,0,0,0,0,
0,0,0,0,0,0,0,0,0,1703,0,1703,0,0,0,0,0,0,0,0,0,0,0,0,0,0,0,0,0,0,0,0,0,0,0,0,0,0,0,0,0,0,0,0,1703,0,0,0,0,0,0,0,0,0,1703,0,0,0,0,0,0,0,0,0,
0,0,0,0,0,0,0,1703,0,1732,1733,1732,1733,0,1703,0,0,0,0,0,0,0,0,0,0,0,0,0,0,0,0,0,0,0,0,0,0,0,0,0,0,0,0,0,0,0,0,0,0,0,0,0,0,1732,1733,0,1703,0,0,0,0,0,0,0,
0,0,0,0,0,0,0,1703,0,1732,1733,1703,0,1732,1733,0,0,0,0,0,0,0,0,0,0,0,0,0,0,0,0,0,0,0,0,0,0,0,0,0,0,0,0,0,0,0,0,0,0,0,0,0,0,1732,1733,1703,0,0,0,0,0,0,0,0,
0,0,1732,1733,1732,1733,1732,1733,0,0,1732,1733,0,1732,1733,1732,1733,0,0,0,0,0,0,0,0,0,0,0,0,0,0,0,0,0,0,0,0,0,0,0,0,0,0,0,0,0,0,0,0,0,0,0,0,1732,1733,0,0,0,0,0,0,0,0,0,
1703,0,1732,1733,1732,1733,1732,1733,1732,1733,1732,1733,0,0,0,1703,0,0,0,0,0,0,0,0,0,0,0,0,0,0,0,0,0,0,0,0,0,0,0,0,0,0,0,0,0,0,0,0,0,0,0,0,0,0,1732,1733,1703,0,0,0,0,0,0,0,
0,0,1732,1733,1732,1733,1732,1733,0,1703,0,1703,0,0,0,1703,0,1703,0,0,0,0,0,0,0,0,0,0,0,0,0,0,0,0,0,0,0,0,0,0,0,0,0,0,0,0,0,0,0,0,0,0,1732,1733,0,1703,0,0,0,0,0,0,0,0,
0,0,0,1732,1733,1732,1733,0,1732,1733,1703,0,1732,1733,1703,0,1732,1733,0,0,0,0,0,0,0,0,0,0,0,0,0,0,0,0,0,0,0,0,0,0,0,0,0,0,0,0,0,0,0,0,0,0,1732,1733,0,0,0,0,0,0,0,0,0,0,
0,0,0,0,1732,1733,1732,1733,0,1732,1733,1703,0,0,1732,1733,1703,0,0,1703,0,0,0,0,0,0,0,0,0,0,0,0,0,0,0,0,0,0,0,0,0,0,0,0,0,0,0,0,0,0,0,0,1732,1733,0,0,0,0,0,0,0,0,0,0,
0,0,0,0,0,1732,1733,1732,1733,0,1732,1733,0,1732,1733,1703,0,1732,1733,1703,0,0,0,0,0,0,0,0,0,0,0,0,0,1703,0,0,0,1703,0,1703,0,0,0,0,0,0,0,0,0,0,0,0,1732,1733,1703,0,0,0,0,0,0,0,0,0,
0,0,0,0,0,0,1703,0,1732,1733,0,1703,0,0,0,1732,1733,1732,1733,1703,0,0,0,0,0,0,0,0,0,0,0,0,0,1703,0,0,0,1732,1733,1703,0,0,0,0,0,0,0,0,0,0,0,0,0,1732,1733,0,0,0,0,0,0,0,0,0,
0,0,0,0,0,0,0,0,1732,1733,1732,1733,1703,0,1732,1733,1703,0,1703,0,0,0,0,0,0,0,0,0,0,0,0,0,0,1703,0,0,1732,1733,1703,0,0,0,0,0,0,0,0,0,0,0,0,0,0,0,0,0,0,0,0,0,0,0,0,0,
0,0,0,0,0,0,0,0,0,0,0,0,0,0,1732,1733,0,0,0,0,0,0,0,0,0,0,0,0,0,0,0,0,0,0,0,0,0,1732,1733,1703,0,0,0,0,0,0,0,0,0,0,0,0,0,0,0,0,0,0,0,0,0,0,0,0,
0,0,0,0,0,0,0,0,0,0,0,0,0,0,1732,1733,0,0,0,0,0,0,0,0,0,0,0,0,0,0,0,0,0,0,0,0,1732,1733,1732,1733,0,0,0,0,0,0,0,0,0,0,0,0,0,0,0,0,0,0,0,0,0,0,0,0,
0,0,0,0,0,0,0,0,0,0,0,0,0,0,0,1732,1733,0,0,0,0,0,0,0,0,0,0,0,0,0,1703,0,0,1732,1733,1732,1733,0,0,1703,0,0,0,0,0,0,0,0,0,0,0,0,0,0,0,0,0,0,0,0,0,0,0,0,
0,0,0,0,0,0,0,0,0,0,0,0,0,0,0,1732,1733,0,0,0,0,0,0,0,0,0,0,0,0,0,0,1703,0,1732,1733,1703,0,0,1732,1733,0,0,0,0,0,0,0,0,0,0,0,0,0,0,0,0,0,0,0,0,0,0,0,0,
0,0,0,0,0,0,0,0,0,0,0,0,0,0,0,0,1732,1733,1703,0,0,0,0,0,0,0,0,0,0,0,0,0,0,0,1732,1733,1703,0,0,0,0,0,0,0,0,0,0,0,0,0,0,0,0,0,0,0,0,0,0,0,0,0,0,0,
0,0,0,0,0,0,0,0,0,0,0,0,0,0,0,0,0,1732,1733,0,0,0,0,0,0,0,0,0,0,0,0,0,0,0,1703,0,0,0,0,0,0,0,0,0,0,0,0,0,0,0,0,0,0,0,0,0,0,0,0,0,0,0,0,0,
0,0,0,0,0,0,0,0,0,0,0,0,0,0,0,0,0,0,0,0,0,0,0,0,0,0,0,0,0,0,0,0,0,0,0,0,0,0,0,0,0,0,0,0,0,0,0,0,0,0,0,0,0,0,0,0,0,0,0,0,0,0,0,0,
0,0,0,0,0,0,0,0,0,0,0,0,0,0,0,0,0,0,0,0,0,0,0,0,0,0,0,0,0,0,0,0,0,0,0,0,0,0,0,0,0,0,0,0,0,0,0,0,0,0,0,0,0,0,1703,0,0,0,0,0,0,0,0,0,
0,0,0,0,0,0,0,0,0,0,0,0,0,0,0,0,0,0,0,0,0,0,0,0,0,0,0,0,0,0,0,0,0,0,0,0,0,0,0,0,0,0,0,0,0,0,0,0,0,0,0,0,0,0,0,0,0,0,0,0,0,0,0,0,
0,0,0,0,0,0,0,0,0,0,0,0,0,0,0,0,0,0,0,0,0,0,0,0,0,0,0,0,0,0,0,0,0,0,0,0,0,0,0,0,0,0,0,0,0,0,0,0,0,0,0,0,0,0,0,0,0,0,0,0,0,0,0,0,
0,0,0,0,0,0,0,0,0,0,0,0,0,0,0,0,0,0,0,0,0,0,0,0,0,0,0,0,0,0,0,0,0,0,0,0,0,0,0,0,0,0,0,0,0,0,0,0,0,0,0,0,0,0,0,0,0,0,0,0,0,0,0,0,
0,0,0,0,0,0,0,0,0,0,0,0,0,0,0,0,0,0,0,0,0,0,0,0,0,0,0,0,0,0,0,0,0,0,0,0,0,0,0,0,0,0,0,0,0,0,0,0,0,0,0,0,0,0,0,0,0,0,0,0,0,0,0,0,
0,0,0,0,0,0,0,0,0,0,0,0,0,0,0,0,0,0,0,0,0,0,0,0,0,0,0,0,0,0,0,0,0,0,0,0,0,0,0,0,0,0,0,0,0,0,0,0,0,0,0,0,0,0,0,0,0,0,0,0,0,0,0,0,
0,0,0,0,0,0,0,0,0,0,0,0,0,0,0,0,0,0,0,0,0,0,0,0,0,0,0,0,0,0,0,0,0,0,0,0,0,0,0,0,0,0,0,0,0,0,0,0,0,1703,0,0,0,0,0,0,0,0,0,0,0,0,0,0,
0,0,0,0,0,0,0,0,0,0,0,0,0,0,0,0,0,0,0,0,0,0,0,0,0,0,0,0,0,0,0,0,0,0,0,0,0,0,0,0,0,0,0,0,0,0,0,0,0,0,0,0,0,0,0,0,0,0,0,0,0,0,0,0,
0,0,0,0,0,0,0,0,0,0,0,0,0,0,0,0,0,0,0,0,0,0,0,0,0,0,0,0,0,0,0,0,0,0,0,0,0,0,0,0,0,0,0,0,0,0,0,0,0,0,0,0,0,0,0,0,0,0,0,0,0,0,0,0,
0,0,0,0,0,0,0,0,0,0,0,0,0,0,0,0,0,0,0,0,0,0,0,0,0,1732,1733,1703,0,0,0,0,0,0,0,0,0,0,0,0,0,0,0,0,0,0,0,0,0,0,0,0,0,0,0,0,0,0,0,0,0,0,0,0,
0,0,0,0,0,0,0,0,0,0,0,0,0,0,0,0,0,0,0,0,0,0,0,0,0,1732,1733,1732,1733,1703,0,0,0,0,0,0,0,0,0,0,0,0,0,0,0,0,0,0,0,0,0,0,0,0,0,0,0,0,0,0,0,0,0,0,
0,0,0,0,0,0,0,0,0,0,0,0,0,0,0,0,0,0,0,0,0,0,0,0,0,0,1732,1733,0,0,1732,1733,0,0,0,0,0,0,0,0,0,0,0,0,0,0,0,0,0,0,0,0,0,0,0,0,0,0,0,0,0,0,0,0,
0,0,0,0,0,0,0,0,0,0,0,0,0,0,0,0,0,0,0,0,0,0,0,0,0,0,0,1732,1733,0,1703,0,1732,1733,0,0,0,0,0,0,0,0,0,0,0,0,0,0,0,0,0,0,0,0,0,0,0,0,0,0,0,0,0,0,
0,0,0,0,0,0,0,0,0,0,0,0,0,0,0,0,0,0,0,0,0,0,0,0,0,0,0,0,0,1732,1733,1732,1733,1703,0,0,0,0,0,0,1732,1733,0,0,0,0,0,0,0,0,0,0,0,0,0,0,0,0,0,0,0,0,0,0,
0,0,0,0,0,0,0,0,0,0,0,0,0,0,0,0,0,0,0,0,0,0,0,0,0,0,0,0,0,0,0,1732,1733,1732,1733,1703,0,1732,1733,1732,1733,0,0,0,0,0,0,0,0,0,0,0,0,0,0,0,0,0,0,0,0,0,0,0,
0,0,0,0,0,0,0,0,0,0,0,0,0,0,0,0,0,0,0,0,0,0,0,0,0,0,0,0,0,0,0,0,0,1703,0,1703,0,0,0,1703,0,0,0,0,0,0,0,0,0,0,0,0,0,0,0,0,0,0,0,0,0,0,0,0,
0,0,0,0,0,0,0,0,0,0,0,0,0,0,0,0,0,0,0,0,0,0,0,0,0,0,0,0,0,0,0,0,0,0,0,0,1703,0,0,0,0,0,0,0,0,0,0,0,0,0,0,0,0,0,0,0,0,0,0,0,0,0,0,0,
0,0,0,0,0,0,0,0,0,0,0,0,0,0,0,0,0,0,0,0,0,0,0,0,0,0,0,0,0,0,0,0,0,0,0,0,0,0,0,0,0,0,0,0,0,0,0,0,0,0,0,0,0,0,0,0,0,0,0,0,0,0,0,0,
0,0,0,0,0,0,0,0,0,0,0,0,0,0,0,0,0,0,0,0,0,0,0,0,0,0,0,0,0,0,0,0,0,0,0,0,0,0,0,0,0,0,0,0,0,0,0,0,0,0,0,0,0,0,0,0,0,0,0,0,0,0,0,0,
0,0,0,0,0,0,0,0,0,0,0,0,0,0,0,0,0,0,0,0,0,0,0,0,0,0,0,0,0,0,0,0,0,0,0,0,0,0,0,0,0,0,0,0,0,0,0,0,0,0,0,0,0,0,0,0,0,0,0,0,0,0,0,0,
0,1703,0,0,1732,1733,1732,1733,0,0,0,0,1732,1733,1732,1733,1732,1733,0,0,0,0,0,0,0,1703,0,0,1703,0,1703,0,1732,1733,1703,0,0,0,0,0,0,0,0,0,0,1703,0,1703,0,0,0,0,0,0,0,0,0,0,0,0,0,0,0,0
</data></layer><layer id="6" name="GROUND2" width="64" height="64"><data encoding="csv">1726,1727,0,0,0,1726,1727,0,1726,1727,1726,1727,1726,1727,1697,0,0,0,0,0,0,0,0,0,1726,1727,0,0,1726,1727,0,1697,0,0,0,1726,1727,1726,1727,0,0,0,0,0,0,1697,0,0,0,1697,0,0,0,0,0,0,0,0,0,0,0,0,0,0,
0,0,0,0,0,1726,1727,0,1697,0,1726,1727,0,1726,1727,1726,1727,0,0,0,0,0,0,0,0,1726,1727,1697,0,1697,0,1697,0,0,0,0,1726,1727,0,0,0,0,0,0,0,0,0,1697,0,1697,0,0,0,0,0,0,0,0,0,0,0,0,0,0,
0,0,0,0,0,0,1697,0,1726,1727,1726,1727,0,0,1697,0,0,0,0,0,0,0,0,0,1726,1727,1726,1727,1726,1727,1697,0,0,0,0,0,0,0,0,0,0,0,0,0,0,0,0,0,0,1697,0,0,0,0,0,0,0,0,0,0,0,0,0,0,
0,0,0,0,0,0,0,0,0,0,0,0,0,0,0,0,0,0,0,0,0,0,0,0,0,0,0,0,0,0,0,0,0,0,0,0,0,0,0,0,0,0,0,0,0,0,0,1697,0,0,0,0,0,0,0,0,0,1697,0,0,0,0,0,0,
0,0,0,0,0,0,0,0,0,0,0,0,0,0,0,0,0,0,0,0,0,0,0,0,0,0,0,0,0,0,1726,1727,1726,1727,0,0,0,0,0,0,0,0,0,0,0,1726,1727,1697,0,0,0,0,0,0,0,0,0,0,0,0,0,0,0,0,
0,0,0,0,0,0,0,0,0,0,0,0,0,0,0,0,0,0,0,0,0,0,0,0,0,0,0,0,0,0,1726,1727,1697,0,0,0,0,0,0,0,0,0,0,0,0,1726,1727,0,0,0,0,0,0,0,0,0,0,0,0,0,0,0,0,0,
0,0,0,0,0,0,0,0,0,0,0,0,0,0,0,0,0,0,0,0,0,0,0,0,0,0,0,0,1697,0,1726,1727,1726,1727,0,0,0,0,0,0,0,0,0,0,1726,1727,0,0,1697,0,0,0,0,0,0,0,0,0,0,0,0,0,0,0,
0,0,0,0,0,0,0,0,0,0,0,0,0,0,0,0,0,0,0,0,0,0,0,0,0,0,1726,1727,1726,1727,1726,1727,1726,1727,0,0,0,0,0,0,0,0,0,0,1726,1727,1726,1727,1697,0,0,0,0,0,0,0,0,0,0,0,0,0,0,0,
0,0,0,0,0,0,0,0,0,0,0,0,0,0,0,0,0,0,0,0,0,0,1726,1727,1697,0,1726,1727,0,1726,1727,1726,1727,1697,0,0,0,0,0,0,0,0,0,0,1726,1727,0,1697,0,0,1726,1727,1697,0,0,0,0,0,0,0,0,0,0,0,
0,0,0,0,0,0,0,0,0,0,0,0,0,0,0,0,0,0,0,0,0,1726,1727,0,1726,1727,1726,1727,1726,1727,1726,1727,0,0,0,0,0,0,0,0,0,0,0,1726,1727,1726,1727,0,0,0,0,1726,1727,0,0,0,0,0,0,0,0,0,0,0,
0,0,0,0,0,0,0,0,0,0,0,0,0,1697,0,0,0,0,0,0,0,0,1697,0,1697,0,1726,1727,1726,1727,1726,1727,1726,1727,0,0,0,0,0,0,0,0,1697,0,1726,1727,0,1697,0,0,1726,1727,0,1726,1727,0,0,0,0,0,0,0,0,0,
0,0,0,0,0,0,0,0,0,0,0,0,0,1726,1727,0,0,0,0,0,1726,1727,0,1697,0,1697,0,1726,1727,0,1726,1727,0,0,0,0,0,0,0,0,0,1697,0,1726,1727,0,1726,1727,0,1697,0,1697,0,0,1697,0,0,0,0,0,0,0,0,0,
0,0,0,0,0,1726,1727,1726,1727,1697,0,0,0,0,1726,1727,0,0,0,0,1726,1727,1726,1727,1726,1727,1726,1727,0,0,0,0,0,1726,1727,0,0,0,0,0,0,0,0,0,0,1697,0,0,0,1726,1727,1726,1727,0,1697,0,0,0,0,0,0,0,0,0,
0,0,0,0,1726,1727,0,1697,0,0,0,0,0,0,0,0,0,0,0,0,0,0,0,0,0,0,0,0,0,1726,1727,0,0,1697,0,1697,0,0,0,0,0,0,0,0,1697,0,1697,0,0,1697,0,0,1726,1727,1697,0,0,0,0,0,0,0,0,0,
0,0,0,0,0,0,0,0,0,1726,1727,0,0,1697,0,0,1697,0,0,0,0,0,1726,1727,0,1726,1727,1726,1727,1726,1727,1697,0,1726,1727,0,0,0,0,0,0,0,0,0,0,1726,1727,0,1726,1727,0,1726,1727,1726,1727,0,0,0,0,0,0,0,0,0,
0,0,1726,1727,0,1726,1727,1726,1727,1726,1727,1726,1727,1726,1727,1726,1727,0,0,0,0,0,0,1697,0,1726,1727,1726,1727,0,1697,0,0,0,0,1726,1727,0,0,0,0,0,0,0,1726,1727,0,0,0,1726,1727,1697,0,0,1697,0,0,0,0,0,0,0,0,0,
0,1726,1727,1697,0,1726,1727,1697,0,0,0,0,1726,1727,1726,1727,1697,0,0,0,0,0,0,0,0,0,0,1697,0,1697,0,1697,0,1726,1727,1726,1727,0,0,0,0,0,0,0,1726,1727,0,1726,1727,1726,1727,0,1726,1727,1697,0,0,0,0,0,0,0,0,0,
1697,0,0,0,1697,0,0,1697,0,0,1697,0,1697,0,0,0,0,0,0,0,0,0,0,0,0,0,0,0,1726,1727,0,0,0,0,0,0,0,0,0,0,0,0,0,0,0,1697,0,1697,0,1726,1727,1697,0,1726,1727,0,0,0,0,0,0,0,0,0,
1726,1727,0,1726,1727,0,1726,1727,1697,0,0,0,1697,0,0,0,0,0,1697,0,0,0,0,0,0,0,0,1726,1727,1726,1727,1726,1727,1697,0,0,0,0,0,0,0,0,0,0,1697,0,0,0,0,1726,1727,1726,1727,1697,0,0,0,0,0,0,0,0,0,0,
1726,1727,0,1726,1727,0,1697,0,0,0,0,0,0,0,0,0,0,0,1697,0,0,0,0,0,0,0,0,1697,0,1726,1727,0,0,0,0,0,0,0,0,0,0,0,1697,0,1726,1727,0,0,1726,1727,0,1726,1727,1697,0,0,0,0,0,0,0,0,0,0,
0,1697,0,1697,0,1697,0,0,0,0,0,0,0,0,0,0,0,0,0,0,0,0,0,0,0,0,0,1726,1727,1726,1727,1697,0,0,0,0,0,0,0,0,0,0,1726,1727,1697,0,1697,0,0,1697,0,0,0,0,0,0,0,0,0,0,0,0,0,0,
0,0,0,0,0,0,0,0,0,0,0,0,0,0,0,0,0,0,0,0,0,0,0,0,0,0,0,0,1726,1727,0,0,0,0,0,0,0,0,0,0,0,0,1726,1727,0,1726,1727,0,0,0,0,0,0,0,0,0,0,0,0,0,0,0,0,0,
1726,1727,0,1697,0,0,0,0,0,0,0,0,0,0,0,0,0,0,0,0,0,0,0,0,0,0,0,0,0,0,0,0,0,0,0,0,0,0,0,0,0,0,1726,1727,1697,0,1697,0,0,0,0,0,0,0,0,0,0,0,0,0,0,0,0,0,
0,0,0,0,0,0,0,0,0,1697,0,0,0,1697,0,0,0,0,0,0,0,0,0,0,0,0,0,0,0,0,0,0,0,0,0,0,0,0,0,0,0,0,0,1726,1727,0,0,0,0,0,0,0,0,0,1726,1727,0,0,0,0,0,0,0,0,
0,0,0,0,0,0,0,0,0,1697,0,1697,0,0,0,0,0,0,0,0,0,0,0,0,0,0,0,0,0,0,0,0,0,0,0,0,0,0,0,0,0,0,0,0,1697,0,0,0,0,0,0,0,0,0,1697,0,0,0,0,0,0,0,0,0,
0,0,0,0,0,0,0,1697,0,1726,1727,1726,1727,0,1697,0,0,0,0,0,0,0,0,0,0,0,0,0,0,0,0,0,0,0,0,0,0,0,0,0,0,0,0,0,0,0,0,0,0,0,0,0,0,1726,1727,0,1697,0,0,0,0,0,0,0,
0,0,0,0,0,0,0,1697,0,1726,1727,1697,0,1726,1727,0,0,0,0,0,0,0,0,0,0,0,0,0,0,0,0,0,0,0,0,0,0,0,0,0,0,0,0,0,0,0,0,0,0,0,0,0,0,1726,1727,1697,0,0,0,0,0,0,0,0,
0,0,1726,1727,1726,1727,1726,1727,0,0,1726,1727,0,1726,1727,1726,1727,0,0,0,4,0,0,0,0,0,0,0,0,0,0,0,0,0,0,0,0,0,0,0,0,0,0,0,0,0,0,0,0,0,0,0,0,1726,1727,0,0,0,0,0,0,0,0,0,
1697,0,1726,1727,1726,1727,1726,1727,1726,1727,1726,1727,0,0,0,1697,0,0,0,0,16,0,0,0,0,0,0,0,0,0,0,0,0,0,0,0,0,0,0,0,0,0,0,0,0,0,0,0,0,0,0,0,0,0,1726,1727,1697,0,0,0,0,0,0,0,
0,0,1726,1727,1726,1727,1726,1727,0,1697,0,1697,0,0,0,1697,0,1697,0,0,28,0,0,0,0,0,0,0,0,0,0,0,0,0,0,0,0,0,0,0,0,0,0,0,0,0,0,0,0,0,0,0,1726,1727,0,1697,0,0,0,0,0,0,0,0,
0,0,0,1726,1727,1726,1727,0,1726,1727,1697,0,1726,1727,1697,0,1726,1727,0,0,0,0,0,0,0,0,0,0,0,0,0,0,0,0,0,0,0,0,0,0,0,0,0,0,0,0,0,0,0,0,0,0,1726,1727,0,0,0,0,0,0,0,0,0,0,
0,0,0,0,1726,1727,1726,1727,0,1726,1727,1697,0,0,1726,1727,1697,0,0,1697,0,0,0,0,0,0,0,0,0,0,0,0,0,0,0,0,0,0,0,0,0,0,0,0,0,0,0,0,0,0,0,0,1726,1727,0,0,0,0,0,0,0,0,0,0,
0,0,0,0,0,1726,1727,1726,1727,0,1726,1727,0,1726,1727,1697,0,1726,1727,1697,0,0,0,0,0,0,0,0,0,0,0,0,0,1697,0,0,0,1697,0,1697,0,0,0,0,0,0,0,0,0,0,0,0,1726,1727,1697,0,0,0,0,0,0,0,0,0,
0,0,0,0,0,0,1697,0,1726,1727,0,1697,0,0,0,1726,1727,1726,1727,1697,0,0,0,0,0,0,0,0,0,0,0,0,0,1697,0,0,0,1726,1727,1697,0,0,0,0,0,0,0,0,0,0,0,0,0,1726,1727,0,0,0,0,0,0,0,0,0,
0,0,0,0,0,0,0,0,1726,1727,1726,1727,1697,0,1726,1727,1697,0,1697,0,0,0,0,0,0,0,0,0,0,0,0,0,0,1697,0,0,1726,1727,1697,0,0,0,0,0,0,0,0,0,0,0,0,0,0,0,0,0,0,0,0,0,0,0,0,0,
0,0,0,0,0,0,0,0,0,0,0,0,0,0,1726,1727,0,0,0,0,0,0,0,0,0,0,0,0,0,0,0,0,0,0,0,0,0,1726,1727,1697,0,0,0,0,0,0,0,0,0,0,0,0,0,0,0,0,0,0,0,0,0,0,0,0,
0,0,0,0,0,0,0,0,0,0,0,0,0,0,1726,1727,0,0,0,0,0,0,0,0,0,0,0,0,0,0,0,0,0,0,0,0,1726,1727,1726,1727,0,0,0,0,0,0,0,0,0,0,0,0,0,0,0,0,0,0,0,0,0,0,0,0,
0,0,0,0,0,0,0,0,0,0,0,0,0,0,0,1726,1727,0,0,0,0,0,0,0,0,0,0,0,0,0,1697,0,0,1726,1727,1726,1727,0,0,1697,0,0,0,0,0,0,0,0,0,0,0,0,0,0,0,0,0,0,0,0,0,0,0,0,
0,0,0,0,0,0,0,0,0,0,0,0,0,0,0,1726,1727,0,0,0,0,0,0,0,0,0,0,0,0,0,0,1697,0,1726,1727,1697,0,0,1726,1727,0,0,0,0,0,0,0,0,0,0,0,0,0,0,0,0,0,0,0,0,0,0,0,0,
0,0,0,0,0,0,0,0,0,0,0,0,0,0,0,0,1726,1727,1697,0,0,0,0,0,0,0,0,0,0,0,0,0,0,0,1726,1727,1697,0,0,0,0,0,0,0,0,0,0,0,0,0,0,0,0,0,0,0,0,0,0,0,0,0,0,0,
0,0,0,0,0,0,0,0,0,0,0,0,0,0,0,0,0,1726,1727,0,0,0,0,0,0,0,0,0,0,0,0,0,0,0,1697,0,0,0,0,0,0,0,0,0,0,0,0,0,0,0,0,0,0,0,0,0,0,0,0,0,0,0,0,0,
0,0,0,0,0,0,0,0,0,0,0,0,0,0,0,0,0,0,0,0,0,0,0,0,0,0,0,0,0,0,0,0,0,0,0,0,0,0,0,0,0,0,0,0,0,0,0,0,0,0,0,0,0,0,0,0,0,0,0,0,0,0,0,0,
0,0,0,0,0,0,0,0,0,0,0,0,0,0,0,0,0,0,0,0,0,0,0,0,0,0,0,0,0,0,0,0,0,0,0,0,0,0,0,0,0,0,0,0,0,0,0,0,0,0,0,0,0,0,1697,0,0,0,0,0,0,0,0,0,
0,0,0,0,0,0,0,0,0,0,0,0,0,0,0,0,0,0,0,0,0,0,0,0,0,0,0,4,0,0,0,0,0,0,0,0,0,0,0,0,0,0,0,0,0,0,0,0,0,0,0,0,0,0,0,0,0,0,0,0,0,0,0,0,
0,0,0,0,0,0,0,0,0,0,0,0,0,0,0,0,0,0,0,0,0,0,0,0,0,0,0,16,0,0,0,0,0,0,0,0,0,0,0,0,0,0,0,0,0,0,0,0,0,0,0,0,0,0,0,0,0,0,0,0,0,0,0,0,
0,0,0,0,0,0,0,0,0,0,0,0,0,0,0,0,0,0,0,0,0,0,0,0,0,0,0,28,0,0,0,0,0,0,0,0,0,0,0,0,0,0,0,0,0,0,0,0,0,0,0,0,0,0,0,0,0,0,0,0,0,0,0,0,
0,0,0,0,0,0,0,0,0,0,0,0,0,0,0,0,0,0,0,0,0,0,0,0,0,0,0,0,0,0,0,0,0,0,0,0,0,0,0,0,0,0,0,0,0,0,0,0,0,0,0,0,0,0,0,0,0,0,0,0,0,0,0,0,
0,0,0,0,0,0,0,0,0,0,0,0,0,0,0,0,0,0,0,0,0,0,0,0,0,0,0,0,0,0,0,0,0,0,0,0,0,0,0,0,0,0,0,0,0,0,0,0,0,0,0,0,0,0,0,0,0,0,0,0,0,0,0,0,
0,0,0,0,0,0,0,0,0,0,0,0,0,0,0,0,0,0,0,0,0,0,0,0,0,0,0,0,0,0,0,0,0,0,0,0,0,0,0,0,0,0,0,0,0,0,0,0,0,1697,0,0,0,0,0,0,0,0,0,0,0,0,0,0,
0,0,0,0,0,0,0,0,0,0,0,0,0,0,0,0,0,0,0,0,0,0,0,0,0,0,0,0,0,0,0,0,0,0,0,0,0,0,0,0,0,0,0,0,0,0,0,0,0,0,0,0,0,0,0,0,0,0,0,0,0,0,0,0,
0,0,0,0,0,0,0,0,0,0,0,0,0,0,0,0,0,0,0,0,0,0,0,0,0,0,0,0,0,0,0,0,0,0,0,0,0,0,0,0,0,0,0,0,0,0,0,0,0,0,0,0,0,0,0,0,0,0,0,0,0,0,0,0,
0,0,0,0,0,0,0,0,0,0,0,0,0,0,0,0,0,0,0,0,0,0,0,0,0,1726,1727,1697,0,0,0,0,0,0,0,0,0,0,0,0,0,0,0,0,0,0,0,0,0,0,0,0,0,0,0,0,0,0,0,0,0,0,0,0,
0,0,0,0,0,0,0,0,0,0,0,0,0,0,0,0,0,0,0,0,0,0,0,0,0,1726,1727,1726,1727,1697,0,0,0,0,0,0,0,0,0,0,0,0,0,0,0,0,0,0,0,0,0,0,0,0,0,0,0,0,0,0,0,0,0,0,
0,0,0,0,0,0,0,0,0,0,0,0,0,0,0,0,0,0,0,0,0,0,0,0,0,0,1726,1727,0,0,1726,1727,0,0,0,0,0,0,0,0,0,0,0,0,0,0,0,0,0,0,0,0,0,0,0,0,0,0,0,0,0,0,0,0,
0,0,0,0,0,0,0,0,0,0,0,0,0,0,0,0,0,0,0,0,0,0,0,0,0,0,0,1726,1727,0,1697,0,1726,1727,0,0,0,0,0,0,0,0,0,0,0,0,0,0,0,0,0,0,0,0,0,0,0,0,0,0,0,0,0,0,
0,0,0,0,0,0,0,0,0,0,0,0,0,0,0,0,0,0,0,0,0,0,0,0,0,0,0,0,0,1726,1727,1726,1727,1697,0,0,0,0,0,0,1726,1727,0,0,0,0,0,0,0,0,0,0,0,0,0,0,0,0,0,0,0,0,0,0,
0,0,0,0,0,0,0,0,0,0,0,0,0,0,0,0,0,0,0,0,0,0,0,0,0,0,0,0,0,0,0,1726,1727,1726,1727,1697,0,1726,1727,1726,1727,0,0,0,0,0,0,0,0,0,0,0,0,0,0,0,0,0,0,0,0,0,0,0,
0,0,0,0,0,0,0,0,0,0,0,0,0,0,0,0,0,0,0,0,0,0,0,0,0,0,0,0,0,0,0,0,0,1697,0,1697,0,0,0,1697,0,0,0,0,0,0,0,0,0,0,0,0,0,0,0,0,0,0,0,0,0,0,0,0,
0,0,0,0,0,0,0,0,0,0,0,0,0,0,0,0,0,0,0,0,0,0,0,0,0,0,0,0,0,0,0,0,0,0,0,0,1697,0,0,0,0,0,0,0,0,0,0,0,0,0,0,0,0,0,0,0,0,0,0,0,0,0,0,0,
0,0,0,0,0,0,0,0,0,0,0,0,0,0,0,0,0,0,0,0,0,0,0,0,0,0,0,0,0,0,0,0,0,0,0,0,0,0,0,0,0,0,0,0,0,0,0,0,0,0,0,0,0,0,0,0,0,0,0,0,0,0,0,0,
0,0,0,0,0,0,0,0,0,0,0,0,0,0,0,0,0,0,0,0,0,0,0,0,0,0,0,0,0,0,0,0,0,0,0,0,0,0,0,0,0,0,0,0,0,0,0,0,0,0,0,0,0,0,0,0,0,0,0,0,0,0,0,0,
0,0,0,0,0,0,0,0,0,0,0,0,0,0,0,0,0,0,0,0,0,0,0,0,0,0,0,0,0,0,0,0,0,0,0,0,0,0,0,0,0,0,0,0,0,0,0,0,0,0,0,0,0,0,0,0,0,0,0,0,0,0,0,0,
0,1697,0,0,1726,1727,1726,1727,0,0,0,0,1726,1727,1726,1727,1726,1727,0,0,0,0,0,0,0,1697,0,0,1697,0,1697,0,1726,1727,1697,0,0,0,0,0,0,0,0,0,0,1697,0,1697,0,0,0,0,0,0,0,0,0,0,0,0,0,0,0,0,
0,1697,0,0,0,1726,1727,1697,0,1697,0,0,0,0,0,0,0,0,0,0,0,0,0,0,1697,0,1726,1727,1697,0,1726,1727,1697,0,0,0,0,1726,1727,0,0,0,0,0,0,0,0,0,0,1697,0,0,0,0,0,0,0,0,0,0,0,0,0,0
</data></layer><layer id="7" name="HEIGHTMAP" width="64" height="64"><data encoding="csv">0,0,0,0,0,0,0,0,0,0,0,0,0,0,0,0,0,0,0,0,0,0,0,0,0,0,0,0,0,0,0,0,0,0,0,0,0,0,0,0,0,0,0,0,0,0,0,0,0,0,0,0,0,0,0,0,0,0,0,0,0,0,0,0,
0,0,0,0,0,0,0,0,0,0,0,0,0,0,0,0,0,0,0,0,0,0,0,0,0,0,0,0,0,0,0,0,0,0,0,0,0,0,0,0,0,0,0,0,0,0,0,0,0,0,0,0,0,0,0,0,0,0,0,0,0,0,0,0,
0,0,0,0,0,0,0,0,0,0,0,0,0,0,0,0,0,0,0,0,0,0,0,0,0,0,0,0,0,0,0,0,0,0,0,0,0,0,0,0,0,0,0,0,0,0,0,0,0,0,0,0,0,0,0,0,0,0,0,0,0,0,0,0,
0,0,0,0,0,0,0,0,0,0,0,0,0,0,0,0,0,0,0,0,0,0,0,0,0,0,0,0,0,0,0,0,0,0,0,0,0,0,0,0,0,0,0,0,0,0,0,0,0,0,0,0,0,0,0,0,0,0,0,0,0,0,0,0,
0,0,0,0,0,0,0,0,0,0,0,0,0,0,0,0,0,0,0,0,0,0,0,0,0,0,0,0,0,0,0,0,0,0,0,0,0,0,0,0,0,0,0,0,0,0,0,0,0,0,0,0,0,0,0,0,0,0,0,0,0,0,0,0,
0,0,0,0,0,0,0,0,0,0,0,0,0,0,0,0,0,0,0,0,0,0,0,0,0,0,0,0,0,0,0,0,0,0,0,0,0,0,0,0,0,0,0,0,0,0,0,0,0,0,0,0,0,0,0,0,0,0,0,0,0,0,0,0,
0,0,0,0,0,0,0,0,0,0,0,0,0,0,0,0,0,0,0,0,0,0,0,0,0,0,0,0,0,0,0,0,0,0,0,0,0,0,0,0,0,0,0,0,0,0,0,0,0,0,0,0,0,0,0,0,0,0,0,0,0,0,0,0,
0,0,0,0,0,0,0,0,0,0,0,0,0,0,0,0,0,0,0,0,0,0,0,0,0,0,0,0,0,0,0,0,0,0,0,0,0,0,0,0,0,0,0,0,0,0,0,0,0,0,0,0,0,0,0,0,0,0,0,0,0,0,0,0,
0,0,0,0,0,0,0,0,0,0,0,0,0,0,0,0,0,0,0,0,0,0,0,0,0,0,0,0,0,0,0,0,0,0,0,0,0,0,0,0,0,0,0,0,0,0,0,0,0,0,0,0,0,0,0,0,0,0,0,0,0,0,0,0,
0,0,0,0,0,0,0,0,0,0,0,0,0,0,0,0,0,0,0,0,0,0,0,0,0,0,0,0,0,0,0,0,0,0,0,0,0,0,0,0,0,0,0,0,0,0,0,0,0,0,0,0,0,0,0,0,0,0,0,0,0,0,0,0,
0,0,0,0,0,0,0,0,0,0,0,0,0,0,0,0,0,0,0,0,0,0,0,0,0,0,0,0,0,0,0,0,0,0,0,0,0,0,0,0,0,0,0,0,0,0,0,0,0,0,0,0,0,0,0,0,0,0,0,0,0,0,0,0,
0,0,0,0,0,0,0,0,0,0,0,0,0,0,0,0,0,0,0,0,0,0,0,0,0,0,0,0,0,0,0,0,0,0,0,0,0,0,0,0,0,0,0,0,0,0,0,0,0,0,0,0,0,0,0,0,0,0,0,0,0,0,0,0,
0,0,0,0,0,0,0,0,0,0,0,0,0,0,0,0,0,0,0,0,0,0,0,0,0,0,0,0,0,0,0,0,0,0,0,0,0,0,0,0,0,0,0,0,0,0,0,0,0,0,0,0,0,0,0,0,0,0,0,0,0,0,0,0,
0,0,0,0,0,0,0,0,0,0,0,0,0,0,0,0,0,0,0,0,0,0,0,0,0,0,0,0,0,0,0,0,0,0,0,0,0,0,0,0,0,0,0,0,0,0,0,0,0,0,0,0,0,0,0,0,0,0,0,0,0,0,0,0,
0,0,0,0,0,0,0,0,0,0,0,0,0,0,0,0,0,0,0,0,0,0,0,0,0,0,0,0,0,0,0,0,0,0,0,0,0,0,0,0,0,0,0,0,0,0,0,0,0,0,0,0,0,0,0,0,0,0,0,0,0,0,0,0,
0,0,0,0,0,0,0,0,0,0,0,0,0,0,0,0,0,0,0,0,0,0,0,0,0,0,0,0,0,0,0,0,0,0,0,0,0,0,0,0,0,0,0,0,0,0,0,0,0,0,0,0,0,0,0,0,0,0,0,0,0,0,0,0,
0,0,0,0,0,0,0,0,0,0,0,0,0,0,0,0,0,0,0,0,0,0,0,0,0,0,0,0,0,0,0,0,0,0,0,0,0,0,0,0,0,0,0,0,0,0,0,0,0,0,0,0,0,0,0,0,0,0,0,0,0,0,0,0,
0,0,0,0,0,0,0,0,0,0,0,0,0,0,0,0,0,0,0,0,0,0,0,0,0,0,0,0,0,0,0,0,0,0,0,0,0,0,0,0,0,0,0,0,0,0,0,0,0,0,0,0,0,0,0,0,0,0,0,0,0,0,0,0,
0,0,0,0,0,0,0,0,0,0,0,0,0,0,0,0,0,0,0,0,0,0,0,0,0,0,0,0,0,0,0,0,0,0,0,0,0,0,0,0,0,0,0,0,0,0,0,0,0,0,0,0,0,0,0,0,0,0,0,0,0,0,0,0,
0,0,0,0,0,0,0,0,0,0,0,0,0,0,0,0,0,0,0,0,0,0,0,0,0,0,0,0,0,0,0,0,0,0,0,0,0,0,0,0,0,0,0,0,0,0,0,0,0,0,0,0,0,0,0,0,0,0,0,0,0,0,0,0,
0,0,0,0,0,0,0,0,0,0,0,0,0,0,0,0,0,0,0,0,0,0,0,0,0,0,0,0,0,0,0,0,0,0,0,0,0,0,0,0,0,0,0,0,0,0,0,0,0,0,0,0,0,0,0,0,0,0,0,0,0,0,0,0,
0,0,0,0,0,0,0,0,0,0,0,0,0,0,0,0,0,0,0,0,0,0,0,0,0,0,0,0,0,0,0,0,0,0,0,0,0,0,0,0,0,0,0,0,0,0,0,0,0,0,0,0,0,0,0,0,0,0,0,0,0,0,0,0,
0,0,0,0,0,0,0,0,0,0,0,0,0,0,0,0,0,0,0,0,0,0,0,0,0,0,0,0,0,0,0,0,0,0,0,0,0,0,0,0,0,0,0,0,0,0,0,0,0,0,0,0,0,0,0,0,0,0,0,0,0,0,0,0,
0,0,0,0,0,0,0,0,0,0,0,0,0,0,0,0,0,0,0,0,0,0,0,0,0,0,0,0,0,0,0,0,0,0,0,0,0,0,0,0,0,0,0,0,0,0,0,0,0,0,0,0,0,0,0,0,0,0,0,0,0,0,0,0,
0,0,0,0,0,0,0,0,0,0,0,0,0,0,0,0,0,0,0,0,0,0,0,0,0,0,0,0,0,0,0,0,0,0,0,0,0,0,0,0,0,0,0,0,0,0,0,0,0,0,0,0,0,0,0,0,0,0,0,0,0,0,0,0,
0,0,0,0,0,0,0,0,0,0,0,0,0,0,0,0,0,0,0,0,0,0,0,0,0,0,0,0,0,0,0,0,0,0,0,0,0,0,0,0,0,0,0,0,0,0,0,0,0,0,0,0,0,0,0,0,0,0,0,0,0,0,0,0,
0,0,0,0,0,0,0,0,0,0,0,0,0,0,0,0,0,0,0,0,0,0,0,0,0,0,0,0,0,0,0,0,0,0,0,0,0,0,0,0,0,0,0,0,0,0,0,0,0,0,0,0,0,0,0,0,0,0,0,0,0,0,0,0,
0,0,0,0,0,0,0,0,0,0,0,0,0,0,0,0,0,0,0,0,0,0,0,0,0,0,0,0,0,0,0,0,0,0,0,0,0,0,0,0,0,0,0,0,0,0,0,0,0,0,0,0,0,0,0,0,0,0,0,0,0,0,0,0,
0,0,0,0,0,0,0,0,0,0,0,0,0,0,0,0,0,0,0,0,0,0,0,0,0,0,0,0,0,0,0,0,0,0,0,0,0,0,0,0,0,0,0,0,0,0,0,0,0,0,0,0,0,0,0,0,0,0,0,0,0,0,0,0,
0,0,0,0,0,0,0,0,0,0,0,0,0,0,0,0,0,0,0,0,0,0,0,0,0,0,0,0,0,0,0,0,0,0,0,0,0,0,0,0,0,0,0,0,0,0,0,0,0,0,0,0,0,0,0,0,0,0,0,0,0,0,0,0,
0,0,0,0,0,0,0,0,0,0,0,0,0,0,0,0,0,0,0,0,0,0,0,0,0,0,0,0,0,0,0,0,0,0,0,0,0,0,0,0,0,0,0,0,0,0,0,0,0,0,0,0,0,0,0,0,0,0,0,0,0,0,0,0,
0,0,0,0,0,0,0,0,0,0,0,0,0,0,0,0,0,0,0,0,0,0,0,0,0,0,0,0,0,0,0,0,0,0,0,0,0,0,0,0,0,0,0,0,0,0,0,0,0,0,0,0,0,0,0,0,0,0,0,0,0,0,0,0,
0,0,0,0,0,0,0,0,0,0,0,0,0,0,0,0,0,0,0,0,0,0,0,0,0,0,0,0,0,0,0,0,0,0,0,0,0,0,0,0,0,0,0,0,0,0,0,0,0,0,0,0,0,0,0,0,0,0,0,0,0,0,0,0,
0,0,0,0,0,0,0,0,0,0,0,0,0,0,0,0,0,0,0,0,0,0,0,0,0,0,0,0,0,0,0,0,0,0,0,0,0,0,0,0,0,0,0,0,0,0,0,0,0,0,0,0,0,0,0,0,0,0,0,0,0,0,0,0,
0,0,0,0,0,0,0,0,0,0,0,0,0,0,0,0,0,0,0,0,0,0,0,0,0,0,0,0,0,0,0,0,0,0,0,0,0,0,0,0,0,0,0,0,0,0,0,0,0,0,0,0,0,0,0,0,0,0,0,0,0,0,0,0,
0,0,0,0,0,0,0,0,0,0,0,0,0,0,0,0,0,0,0,0,0,0,0,0,0,0,0,0,0,0,0,0,0,0,0,0,0,0,0,0,0,0,0,0,0,0,0,0,0,0,0,0,0,0,0,0,0,0,0,0,0,0,0,0,
0,0,0,0,0,0,0,0,0,0,0,0,0,0,0,0,0,0,0,0,0,0,0,0,0,0,0,0,0,0,0,0,0,0,0,0,0,0,0,0,0,0,0,0,0,0,0,0,0,0,0,0,0,0,0,0,0,0,0,0,0,0,0,0,
0,0,0,0,0,0,0,0,0,0,0,0,0,0,0,0,0,0,0,0,0,0,0,0,0,0,0,0,0,0,0,0,0,0,0,0,0,0,0,0,0,0,0,0,0,0,0,0,0,0,0,0,0,0,0,0,0,0,0,0,0,0,0,0,
0,0,0,0,0,0,0,0,0,0,0,0,0,0,0,0,0,0,0,0,0,0,0,0,0,0,0,0,0,0,0,0,0,0,0,0,0,0,0,0,0,0,0,0,0,0,0,0,0,0,0,0,0,0,0,0,0,0,0,0,0,0,0,0,
0,0,0,0,0,0,0,0,0,0,0,0,0,0,0,0,0,0,0,0,0,0,0,0,0,0,0,0,0,0,0,0,0,0,0,0,0,0,0,0,0,0,0,0,0,0,0,0,0,0,0,0,0,0,0,0,0,0,0,0,0,0,0,0,
0,0,0,0,0,0,0,0,0,0,0,0,0,0,0,0,0,0,0,0,0,0,0,0,0,0,0,0,0,0,0,0,0,0,0,0,0,0,0,0,0,0,0,0,0,0,0,0,0,0,0,0,0,0,0,0,0,0,0,0,0,0,0,0,
0,0,0,0,0,0,0,0,0,0,0,0,0,0,0,0,0,0,0,0,0,0,0,0,0,0,0,0,0,0,0,0,0,0,0,0,0,0,0,0,0,0,0,0,0,0,0,0,0,0,0,0,0,0,0,0,0,0,0,0,0,0,0,0,
0,0,0,0,0,0,0,0,0,0,0,0,0,0,0,0,0,0,0,0,0,0,0,0,0,0,0,0,0,0,0,0,0,0,0,0,0,0,0,0,0,0,0,0,0,0,0,0,0,0,0,0,0,0,0,0,0,0,0,0,0,0,0,0,
0,0,0,0,0,0,0,0,0,0,0,0,0,0,0,0,0,0,0,0,0,0,0,0,0,0,0,0,0,0,0,0,0,0,0,0,0,0,0,0,0,0,0,0,0,0,0,0,0,0,0,0,0,0,0,0,0,0,0,0,0,0,0,0,
0,0,0,0,0,0,0,0,0,0,0,0,0,0,0,0,0,0,0,0,0,0,0,0,0,0,0,0,0,0,0,0,0,0,0,0,0,0,0,0,0,0,0,0,0,0,0,0,0,0,0,0,0,0,0,0,0,0,0,0,0,0,0,0,
0,0,0,0,0,0,0,0,0,0,0,0,0,0,0,0,0,0,0,0,0,0,0,0,0,0,0,0,0,0,0,0,0,0,0,0,0,0,0,0,0,0,0,0,0,0,0,0,0,0,0,0,0,0,0,0,0,0,0,0,0,0,0,0,
0,0,0,0,0,0,0,0,0,0,0,0,0,0,0,0,0,0,0,0,0,0,0,0,0,0,0,0,0,0,0,0,0,0,0,0,0,0,0,0,0,0,0,0,0,0,0,0,0,0,0,0,0,0,0,0,0,0,0,0,0,0,0,0,
0,0,0,0,0,0,0,0,0,0,0,0,0,0,0,0,0,0,0,0,0,0,0,0,0,0,0,0,0,0,0,0,0,0,0,0,0,0,0,0,0,0,0,0,0,0,0,0,0,0,0,0,0,0,0,0,0,0,0,0,0,0,0,0,
0,0,0,0,0,0,0,0,0,0,0,0,0,0,0,0,0,0,0,0,0,0,0,0,0,0,0,0,0,0,0,0,0,0,0,0,0,0,0,0,0,0,0,0,0,0,0,0,0,0,0,0,0,0,0,0,0,0,0,0,0,0,0,0,
0,0,0,0,0,0,0,0,0,0,0,0,0,0,0,0,0,0,0,0,0,0,0,0,0,0,0,0,0,0,0,0,0,0,0,0,0,0,0,0,0,0,0,0,0,0,0,0,0,0,0,0,0,0,0,0,0,0,0,0,0,0,0,0,
0,0,0,0,0,0,0,0,0,0,0,0,0,0,0,0,0,0,0,0,0,0,0,0,0,0,0,0,0,0,0,0,0,0,0,0,0,0,0,0,0,0,0,0,0,0,0,0,0,0,0,0,0,0,0,0,0,0,0,0,0,0,0,0,
0,0,0,0,0,0,0,0,0,0,0,0,0,0,0,0,0,0,0,0,0,0,0,0,0,0,0,0,0,0,0,0,0,0,0,0,0,0,0,0,0,0,0,0,0,0,0,0,0,0,0,0,0,0,0,0,0,0,0,0,0,0,0,0,
0,0,0,0,0,0,0,0,0,0,0,0,0,0,0,0,0,0,0,0,0,0,0,0,0,0,0,0,0,0,0,0,0,0,0,0,0,0,0,0,0,0,0,0,0,0,0,0,0,0,0,0,0,0,0,0,0,0,0,0,0,0,0,0,
0,0,0,0,0,0,0,0,0,0,0,0,0,0,0,0,0,0,0,0,0,0,0,0,0,0,0,0,0,0,0,0,0,0,0,0,0,0,0,0,0,0,0,0,0,0,0,0,0,0,0,0,0,0,0,0,0,0,0,0,0,0,0,0,
0,0,0,0,0,0,0,0,0,0,0,0,0,0,0,0,0,0,0,0,0,0,0,0,0,0,0,0,0,0,0,0,0,0,0,0,0,0,0,0,0,0,0,0,0,0,0,0,0,0,0,0,0,0,0,0,0,0,0,0,0,0,0,0,
0,0,0,0,0,0,0,0,0,0,0,0,0,0,0,0,0,0,0,0,0,0,0,0,0,0,0,0,0,0,0,0,0,0,0,0,0,0,0,0,0,0,0,0,0,0,0,0,0,0,0,0,0,0,0,0,0,0,0,0,0,0,0,0,
0,0,0,0,0,0,0,0,0,0,0,0,0,0,0,0,0,0,0,0,0,0,0,0,0,0,0,0,0,0,0,0,0,0,0,0,0,0,0,0,0,0,0,0,0,0,0,0,0,0,0,0,0,0,0,0,0,0,0,0,0,0,0,0,
0,0,0,0,0,0,0,0,0,0,0,0,0,0,0,0,0,0,0,0,0,0,0,0,0,0,0,0,0,0,0,0,0,0,0,0,0,0,0,0,0,0,0,0,0,0,0,0,0,0,0,0,0,0,0,0,0,0,0,0,0,0,0,0,
0,0,0,0,0,0,0,0,0,0,0,0,0,0,0,0,0,0,0,0,0,0,0,0,0,0,0,0,0,0,0,0,0,0,0,0,0,0,0,0,0,0,0,0,0,0,0,0,0,0,0,0,0,0,0,0,0,0,0,0,0,0,0,0,
0,0,0,0,0,0,0,0,0,0,0,0,0,0,0,0,0,0,0,0,0,0,0,0,0,0,0,0,0,0,0,0,0,0,0,0,0,0,0,0,0,0,0,0,0,0,0,0,0,0,0,0,0,0,0,0,0,0,0,0,0,0,0,0,
0,0,0,0,0,0,0,0,0,0,0,0,0,0,0,0,0,0,0,0,0,0,0,0,0,0,0,0,0,0,0,0,0,0,0,0,0,0,0,0,0,0,0,0,0,0,0,0,0,0,0,0,0,0,0,0,0,0,0,0,0,0,0,0,
0,0,0,0,0,0,0,0,0,0,0,0,0,0,0,0,0,0,0,0,0,0,0,0,0,0,0,0,0,0,0,0,0,0,0,0,0,0,0,0,0,0,0,0,0,0,0,0,0,0,0,0,0,0,0,0,0,0,0,0,0,0,0,0,
0,0,0,0,0,0,0,0,0,0,0,0,0,0,0,0,0,0,0,0,0,0,0,0,0,0,0,0,0,0,0,0,0,0,0,0,0,0,0,0,0,0,0,0,0,0,0,0,0,0,0,0,0,0,0,0,0,0,0,0,0,0,0,0,
0,0,0,0,0,0,0,0,0,0,0,0,0,0,0,0,0,0,0,0,0,0,0,0,0,0,0,0,0,0,0,0,0,0,0,0,0,0,0,0,0,0,0,0,0,0,0,0,0,0,0,0,0,0,0,0,0,0,0,0,0,0,0,0
</data></layer></map>